!!!!SEGMENT: pl-stab--4a--001-006_dankowski-adalbert--vesper-beate-marie-vir-lauda-jerusalem.krn
!!!cenid: 18xx:3495
!!!COM: Dankowski, Adalbert
!!!COM-rismid: pe30000793
!!!CDT: ~1760-~1836
!!!CNT: Polish
!!!OPR: Vesper Beate Marie Vir
!!!OTL: Lauda Jerusalem
!!!OMV: 006
!!!PDT:
!!!AGN:
!!!SMS-siglum: PL-STAb
!!!SMS-shelfmark: 4a
!!!SMS-shelfwork: 001-006 M
!!!SMS-variant:
!!!SMS-altvar:
!!!NIFC-rismid: 301050556
!!!URL-scan: https://repozytorium.nifc.pl/islandora/object/pl-stab%3A1091/datastream/PDF/view
!!!ONB-nifc: UWAGA: części Nieszporów: 1. Domine ad adjuvandum, 2. Dixit Dominus, 3. Laudate pueri, 4. Laetatus sum, 5. Nisi Dominus, 6. Lauda Jerusalem, 7. Magnificat, 8. Et misericordia, 9. Gloria. UWAGA: Na f. 1v okładki zapisany głos org niezidentyfikowanych nieszporów
!!!key:
**kern	**fba	**dynam	**kern	**dynam	**kern	**dynam	**kern	**text	**kern	**text	**kern	**text	**kern	**text	**kern	**kern
*	*	*	*group3	*	*group3	*	*group2	*	*group2	*	*group2	*	*group2	*	*group1	*group1
*part9	*	*part9	*part8	*part8	*part7	*part7	*part6	*part6	*part5	*part5	*part4	*part4	*part3	*part3	*part2	*part1
*staff9	*	*	*staff8	*	*staff7	*	*staff6	*staff6	*staff5	*staff5	*staff4	*staff4	*staff3	*staff3	*staff2	*staff1
*I"Organo	*	*	*I"Violino Secundo	*	*I"Violino Primo	*	*I"Baſso	*	*I"Tenor	*	*I"Alto	*	*I"Canto	*	*I"Cornu Secundo Ex D.	*I"Cornu Primo Ex D:
*I|org	*	*	*I|vl 2	*	*I|vl 1	*	*I|B	*	*I|T	*	*I|A	*	*I|S	*	*I|cor 2 in D	*I'cor 1 in D
*Iorgan	*	*	*Ivioln	*	*Ivioln	*	*Ibass	*	*Itenor	*	*Ialto	*	*Isoprn	*	*Icor	*Icor
*ICklav	*	*	*ICstr	*	*ICstr	*	*ICvox	*	*ICvox	*	*ICvox	*	*ICvox	*	*ICbras	*ICbras
*IGcont	*	*	*IGacmp	*	*IGacmp	*	*IGcoro	*	*IGcoro	*	*IGcoro	*	*IGcoro	*	*IGacmp	*IGacmp
*clefF4	*	*	*clefG2	*	*clefG2	*	*clefF4	*	*clefC4	*	*clefC3	*	*clefC1	*	*clefG2	*clefG2
*	*	*	*	*	*	*	*	*	*	*	*	*	*	*	*ITrd6c10	*ITrd6c10
*k[f#c#]	*	*	*k[f#c#]	*	*k[f#c#]	*	*k[f#c#]	*	*k[c#f#]	*	*k[f#c#]	*	*k[f#c#]	*	*k[f#c#]	*k[f#c#]
*D:	*	*	*D:	*	*D:	*	*D:	*	*D:	*	*D:	*	*D:	*	*D:	*D:
*M2/4	*	*	*M2/4	*	*M2/4	*	*M2/4	*	*M2/4	*	*M2/4	*	*M2/4	*	*M2/4	*M2/4
=1	=1	=1	=1	=1	=1	=1	=1	=1	=1	=1	=1	=1	=1	=1	=1	=1
!LO:TX:a:i:t=allegro Tutti	!	!	!LO:TX:a:i:t=allegro	!	!LO:TX:a:i:t=allegro	!	!LO:TX:a:i:t=allegro	!	!LO:TX:a:i:t=allegro	!	!LO:TX:a:i:t=allegro	!	!LO:TX:a:i:t=allegro	!	!LO:TX:a:i:t=Ex D. allegro	!LO:TX:a:i:t=allegro Ex D.
!	!	!	!	!	!	!	!	!	!	!	!	!	!LO:TX:t=P:problem:znaki f# cc#	!	!	!
8D\L	.	.	8.dd\L	.	8.ff#\L	.	4D\	La-	4A\	La-	8.f#\L	Lau-	8.dd\L	La(u)-	4F#/	4d\
8D\	.	.	.	.	.	.	.	.	.	.	.	.	.	.	.	.
.	.	.	16ee\Jk	.	16gg\Jk	.	.	.	.	.	16g\Jk	.	16ee\Jk	.	.	.
8D\	.	.	16ff#\LL	.	16aa\LL	.	8D\	-da	8A\	-da	8a\	-da	8ff#\	-da	4r	4r
.	.	.	16dd\	.	16ff#\	.	.	.	.	.	.	.	.	.	.	.
8D\J	.	.	16gg\	.	16bb\	.	8D\	Je-	8A\	Je-	8a\	Je-	8ff#\	Je-	.	.
.	.	.	16ff#\JJ	.	16aa\JJ	.	.	.	.	.	.	.	.	.	.	.
=2	=2	=2	=2	=2	=2	=2	=2	=2	=2	=2	=2	=2	=2	=2	=2	=2
*tremolo	*	*	*	*	*	*	*	*	*	*	*	*	*	*	*	*
*2\right	*	*	*	*	*	*	*	*	*	*	*	*	*	*	*	*
!	!	!	!	!LO:DY:t=for	!	!LO:DY:a:rj:t=for.	!	!	!	!	!	!	!	!	!	!
8D\L	.	.	(8.ff#\L	f	(8.aa\L	f	8.D\	-ru-	8.A\	-ru-	8.a\	-ru-	8.ff#\	-ru-	8r	8r
8D\	.	.	.	.	.	.	.	.	.	.	.	.	.	.	8d\L	8f#\L
.	.	.	16ee\Jk)	.	16gg\Jk)	.	16D\	-sa-	16A\	-sa-	16g\	-sa-	16ee\	-sa-	.	.
8D\	.	.	4dd|\	.	4ff#|\	.	4D\	-lem	4A\	-lem	4f#\	-lem	4dd\	-lem	8d\	8f#\
8D\J	.	.	.	.	.	.	.	.	.	.	.	.	.	.	8d\J	8f#\J
*Xtremolo	*	*	*	*	*	*	*	*	*	*	*	*	*	*	*	*
=3	=3	=3	=3	=3	=3	=3	=3	=3	=3	=3	=3	=3	=3	=3	=3	=3
!LO:TX:t=P:problem:mixed beam	!	!	!	!	!	!	!	!	!	!	!	!	!	!	!	!
8G\L	6_	.	(8.gg\L	.	(8.bb\L	.	(4G\	Do-	4B\	Do-	(4g\	Do-	4ee\	Do-	4e\	4g\
8G\	.	.	.	.	.	.	.	.	.	.	.	.	.	.	.	.
.	.	.	16ee\Jk)	.	16gg\Jk)	.	.	.	.	.	.	.	.	.	.	.
8A\	4	.	16ee\LL	.	16gg\LL	.	8A\)	.	8A\	.	8f#\)	.	8dd\	.	8d\L	8f#\L
.	.	.	16dd\	.	16ff#\	.	.	.	.	.	.	.	.	.	.	.
8AA/J	3	.	16dd\	.	16ff#\	.	8AA/	-mi-	8A\	-mi-	8e\	-mi-	8dd\	-mi-	8A\J	8e\J
.	.	.	16cc#\JJ	.	16ee\JJ	.	.	.	.	.	.	.	.	.	.	.
=4	=4	=4	=4	=4	=4	=4	=4	=4	=4	=4	=4	=4	=4	=4	=4	=4
4D\	.	.	8dd\L	.	8ff#\L	.	4D\	-num	4A\	-num	4f#\	-num	4dd\	-num	4F#/	4d\
.	.	.	32dd\LL	.	(32ff#\LL	.	.	.	.	.	.	.	.	.	.	.
.	.	.	32cc#\	.	32ee\	.	.	.	.	.	.	.	.	.	.	.
.	.	.	32dd\	.	32ff#\	.	.	.	.	.	.	.	.	.	.	.
.	.	.	32ee\JJJ	.	32gg\JJJ)	.	.	.	.	.	.	.	.	.	.	.
4r	.	.	16ff#\LL	.	16aa\LL	.	4r	.	4r	.	4r	.	4r	.	4r	4r
.	.	.	16gg\	.	16bb\	.	.	.	.	.	.	.	.	.	.	.
.	.	.	16ff#\	.	16aa\	.	.	.	.	.	.	.	.	.	.	.
.	.	.	16ee\JJ	.	16gg\JJ	.	.	.	.	.	.	.	.	.	.	.
=5	=5	=5	=5	=5	=5	=5	=5	=5	=5	=5	=5	=5	=5	=5	=5	=5
8D\L	.	.	(8.dd\L	.	8.ff#\L	.	4D\	Lau-	4.A\	Lau-	8.f#\L	Lau-	8.dd\L	Lau-	4F#/	4d\
8D\	.	.	.	.	.	.	.	.	.	.	.	.	.	.	.	.
.	.	.	16ee\Jk)	.	16gg\Jk	.	.	.	.	.	16g\Jk	.	16ee\Jk	.	.	.
8D\	.	.	16ff#\LL	.	16aa\LL	.	4D\	-da	.	.	8a\	.	8ff#\	.	4r	4r
.	.	.	16dd\	.	16ff#\	.	.	.	.	.	.	.	.	.	.	.
8D\J	.	.	16gg\	.	16bb\	.	.	.	8A\	-da	8a\	-da	8ff#\	-da	.	.
.	.	.	16ff#\JJ	.	16aa\JJ	.	.	.	.	.	.	.	.	.	.	.
=6	=6	=6	=6	=6	=6	=6	=6	=6	=6	=6	=6	=6	=6	=6	=6	=6
*tremolo	*	*	*	*	*	*	*	*	*	*	*	*	*	*	*	*
8D\L	.	.	(8.ff#\L	.	(8.aa\L	.	4D\	De-	4A\	De-	8.a\L	De-	8.ff#\L	De-	8r	8r
8D\	.	.	.	.	.	.	.	.	.	.	.	.	.	.	8d\L	8f#\L
.	.	.	16ee\Jk)	.	16gg\Jk)	.	.	.	.	.	16g\Jk	.	16ee\Jk	.	.	.
.	.	.	8qqee/	.	.	.	.	.	.	.	.	.	.	.	.	.
8D\	.	.	4dd\	.	4ff#|\	.	4D\	-um	4A\	-um	4f#\	-um	4dd\	-um	8d\	8f#\
8D\J	.	.	.	.	.	.	.	.	.	.	.	.	.	.	8d\J	8f#\J
*Xtremolo	*	*	*	*	*	*	*	*	*	*	*	*	*	*	*	*
!	!	!	!	!	!	!	!	!	!	!	!LO:LB:g=original	!	!LO:LB:g=original	!	!	!
=7	=7	=7	=7	=7	=7	=7	=7	=7	=7	=7	=7	=7	=7	=7	=7	=7
8G\L	6_	.	8.gg\L	.	(8.bb\L	.	4.G\	tu-	4B\	tu-	4.g\	tu-	4.ee\	tu-	4e\	4g\
8G\	.	.	.	.	.	.	.	.	.	.	.	.	.	.	.	.
.	.	.	16ff#\Jk	.	16aa\Jk)	.	.	.	.	.	.	.	.	.	.	.
!	!	!	!	!	!LO:LB:g=original	!	!	!	!	!	!	!	!	!	!	!
8G\	.	.	16ff#\LL	.	16aa\LL	.	.	.	4B\	-um	.	.	.	.	8e\L	8g\L
.	.	.	16ee\	.	16gg\	.	.	.	.	.	.	.	.	.	.	.
8G#X\J	5	.	16ee\	.	16gg\	.	8G#X\	-um	.	.	8f#\	-um	8dd\	-um	8d\J	8f#\J
.	.	.	16dd\JJ	.	16ff#\JJ	.	.	.	.	.	.	.	.	.	.	.
=8	=8	=8	=8	=8	=8	=8	=8	=8	=8	=8	=8	=8	=8	=8	=8	=8
!LO:TX:t=P:problem:mixed beam	!	!	!	!	!	!	!	!	!	!	!	!	!	!	!	!
8A\L	4	.	8.dd\L	.	8.gg\L	.	4A\	Si-	4A\	Si-	4f#\	Si-	4dd\	Si-	4d\	4f#\
8A\	3	.	.	.	.	.	.	.	.	.	.	.	.	.	.	.
.	.	.	32cc#\LL	.	32ee\LL	.	.	.	.	.	.	.	.	.	.	.
.	.	.	32dd\JJJ	.	32ff#\JJJ	.	.	.	.	.	.	.	.	.	.	.
8AA/J	.	.	8cc#\L	.	16ee\LL	.	8AA/	-on	8A\	-on	8e\	-on	8cc#\	-on	8A/	8e\
.	.	.	.	.	16a\	.	.	.	.	.	.	.	.	.	.	.
8r	.	.	8a\J	.	16cc#\	.	8r	.	8r	.	8r	.	8r	.	8r	8r
.	.	.	.	.	16ee\JJ	.	.	.	.	.	.	.	.	.	.	.
!	!	!	!LO:LB:g=original	!	!	!	!LO:LB:g=original	!	!	!	!	!	!	!	!	!
=9	=9	=9	=9	=9	=9	=9	=9	=9	=9	=9	=9	=9	=9	=9	=9	=9
*	*	*	*^	*	*	*	*	*	*	*	*	*	*	*	*	*
*	*	*	*	*	*	*	*	*	*	*	*	*	*	*	*	*	*2\right
8C#/L	6_ 5_	.	8a/L	8e\L	.	16aa\LL	.	4C#/	quo-	4A\	Quo-	4g\	Quo-	4ee\	Quo-	2A/	2e\
.	.	.	.	.	.	16gg\	.	.	.	.	.	.	.	.	.	.	.
8C#/	.	.	8a/	8e\	.	16aa\	.	.	.	.	.	.	.	.	.	.	.
.	.	.	.	.	.	16bb\JJ	.	.	.	.	.	.	.	.	.	.	.
!	!	!	!	!	!	!	!	!	!	!LO:LB:g=original	!	!	!	!	!	!	!
8C#/	.	.	8a/	8e\	.	16aa\LL	.	8C#/	-ni-	8A\	-ni-	8g\	-ni-	8ee\	-ni-	.	.
.	.	.	.	.	.	16gg\	.	.	.	.	.	.	.	.	.	.	.
8C#/J	.	.	8a/J	8e\J	.	16ff#\	.	8C#/	-am	8A\	-am	8g\	-am	8ee\	-am	.	.
.	X X	.	.	.	.	16ee\JJ	.	.	.	.	.	.	.	.	.	.	.
=10	=10	=10	=10	=10	=10	=10	=10	=10	=10	=10	=10	=10	=10	=10	=10	=10	=10
*tremolo	*	*	*tremolo	*tremolo	*	*	*	*	*	*	*	*	*	*	*	*2\right	*
*	*	*	*	*2\right	*	*	*	*	*	*	*	*	*	*	*	*	*
8D\L	.	.	8a/L	8f#\L	.	8dd\L	.	4D/	Con-	4A\	Con-	4f#\	Con-	4dd\	Con-	2d\	2f#\
8D\	.	.	8a/	8f#\	.	16dd\L	.	.	.	.	.	.	.	.	.	.	.
.	.	.	.	.	.	16cc#\JJ	.	.	.	.	.	.	.	.	.	.	.
8D\	.	.	8a/	8f#\	.	16dd\LL	.	4D/	-for-	4A\	-for-	4f#\	-for-	4dd\	-for-	.	.
.	.	.	.	.	.	16ee\	.	.	.	.	.	.	.	.	.	.	.
8D\J	.	.	8a/J	8f#\J	.	16ff#\	.	.	.	.	.	.	.	.	.	.	.
.	.	.	.	.	.	16gg\JJ	.	.	.	.	.	.	.	.	.	.	.
*	*	*	*Xtremolo	*Xtremolo	*	*	*	*	*	*	*	*	*	*	*	*	*
=11	=11	=11	=11	=11	=11	=11	=11	=11	=11	=11	=11	=11	=11	=11	=11	=11	=11
8C#/L	6 5	.	8a/L	8e\L	.	16aa\LL	.	4C#/	-ta-	4A\	-ta-	4g\	-ta-	4ee\	-ta-	2A/	2e\
.	.	.	.	.	.	16gg\	.	.	.	.	.	.	.	.	.	.	.
8C#/	.	.	8a/	8e\	.	16aa\	.	.	.	.	.	.	.	.	.	.	.
.	.	.	.	.	.	16bb\JJ	.	.	.	.	.	.	.	.	.	.	.
8C#/	.	.	8a/	8e\	.	16aa\LL	.	4C#/	-vit	4A\	-vit	4g\	-vit	4ee\	-vit	.	.
.	.	.	.	.	.	16gg\	.	.	.	.	.	.	.	.	.	.	.
8C#/J	.	.	8a/J	8e\J	.	16ff#\	.	.	.	.	.	.	.	.	.	.	.
.	.	.	.	.	.	16ee\JJ	.	.	.	.	.	.	.	.	.	.	.
=12	=12	=12	=12	=12	=12	=12	=12	=12	=12	=12	=12	=12	=12	=12	=12	=12	=12
*	*	*	*tremolo	*tremolo	*	*	*	*	*	*	*	*	*	*	*	*	*
8D\L	.	.	8a/L	8f#\L	.	8dd\L	.	4D\	Se-	4A\	se-	4f#\	Se-	4dd\	Se-	2d\	2f#\
8D\	.	.	8a/	8f#\	.	16dd\L	.	.	.	.	.	.	.	.	.	.	.
.	.	.	.	.	.	16cc#\JJ	.	.	.	.	.	.	.	.	.	.	.
8D\	.	.	8a/	8f#\	.	16dd\LL	.	8D\	-ras	8A\	-ras	8f#\	-ras	8dd\	-ras	.	.
.	.	.	.	.	.	16ee\	.	.	.	.	.	.	.	.	.	.	.
8D\J	.	.	8a/J	8f#\J	.	16ff#\	.	8D\	por-	8A\	por-	8f#\	por-	8dd\	por-	.	.
.	.	.	.	.	.	16gg\JJ	.	.	.	.	.	.	.	.	.	.	.
*Xtremolo	*	*	*Xtremolo	*Xtremolo	*	*	*	*	*	*	*	*	*	*	*	*	*
!LO:LB:g=original	!	!	!	!	!	!	!	!	!	!	!	!	!	!	!	!	!
=13	=13	=13	=13	=13	=13	=13	=13	=13	=13	=13	=13	=13	=13	=13	=13	=13	=13
8C#/L	6 3	.	8a/L	8e\L	.	16gg#X\LL	.	4C#/	-ta-	4A\	-ta-	4g\	-ta-	4ee\	-ta-	4e\	4g\
.	.	.	.	.	.	16aa\	.	.	.	.	.	.	.	.	.	.	.
8C#/	.	.	8a/	8e\	.	16ee\	.	.	.	.	.	.	.	.	.	.	.
.	.	.	.	.	.	16ggn\JJ	.	.	.	.	.	.	.	.	.	.	.
8C#/	.	.	8a/	8e\	.	16gg\LL	.	8D\	-rum	8A\	-rum	8f#\	-rum	8dd\	-rum	4d\	4f#\
.	.	.	.	.	.	16ff#\	.	.	.	.	.	.	.	.	.	.	.
!	!	!	!	!	!	!	!	!	!	!LO:SIC:v:l:s=tu-	!	!	!	!LO:SIC:v:l:s=tu-	!	!	!
8D/J	.	.	8a/J	8e\J	.	16ee\	.	8F#\	tu-	8A\	Su-	8f#\	tu-	8dd\	Su-	.	.
.	.	.	.	.	.	16dd\JJ	.	.	.	.	.	.	.	.	.	.	.
*	*	*	*v	*v	*	*	*	*	*	*	*	*	*	*	*	*	*
!	!	!	!	!	!LO:LB:g=original	!	!	!	!	!	!	!	!	!	!LO:LB:g=original	!
=14	=14	=14	=14	=14	=14	=14	=14	=14	=14	=14	=14	=14	=14	=14	=14	=14
!LO:TX:t=P:problem:mixed beam	!	!	!	!	!	!	!	!	!	!	!	!	!	!	!	!
8A\L	.	.	8f#/L	.	8dd\L	.	8A\	-a-	8A\	-a-	8f#\	-a-	8dd\	-a-	8d\L	8f#\L
8AA/	.	.	8e/J	.	8cc#\J	.	8C#/	-rum	8A\	-rum	8e\	-rum	8cc#\	-rum	8A\J	8e\J
8c#\	6	.	4a/	.	[<4aa\	.	4c#\	be-	(4e\	be-	(<4a\	be-	[<4aa\	be-	4r	4r
8c#\J	.	.	.	.	.	.	.	.	.	.	.	.	.	.	.	.
=15	=15	=15	=15	=15	=15	=15	=15	=15	=15	=15	=15	=15	=15	=15	=15	=15
!	!	!	!	!	!LO:N:xstem:cue	!	!	!	!	!	!LO:TX:t=P:problem:brak zakończenia łuku	!	!LO:TX:t=P:problem:brak zakończenia ligatury	!	!	!
8d\L	6_ 5_	.	4.b\	.	8aa\]	.	4d\	.	4f#\)	.	4b\)	.	4aa\]	.	1r	1r
8d\	.	.	.	.	16bb\LL	.	.	.	.	.	.	.	.	.	.	.
.	X X	.	.	.	16aa\JJ	.	.	.	.	.	.	.	.	.	.	.
8e\	.	.	.	.	[<4gg\	.	4e\	-ne-	4e\	-ne-	4b\	-ne-	4gg\	-ne-	.	.
8e\J	.	.	16cc#\LL	.	.	.	.	.	.	.	.	.	.	.	.	.
.	.	.	16b\JJ	.	.	.	.	.	.	.	.	.	.	.	.	.
=16	=16	=16	=16	=16	=16	=16	=16	=16	=16	=16	=16	=16	=16	=16	=16	=16
!	!	!	!	!	!LO:N:xstem:cue	!	!	!	!	!	!	!	!	!	!	!
8c#\L	6_ 5_	.	4.a/	.	8gg\]	.	4c#\	-di-	4e\	-di-	4a\	-di-	4gg\	-di-	.	.
8c#\	.	.	.	.	16aa\LL	.	.	.	.	.	.	.	.	.	.	.
.	X X	.	.	.	16gg\JJ	.	.	.	.	.	.	.	.	.	.	.
!	!	!	!	!	!	!	!LO:SIC:v:l:s=-xit	!	!	!	!	!	!	!	!	!
8d\	.	.	.	.	[<4ff#\	.	4d\	-cit	4d\	-xit	4a\	-xit	4ff#\	-xit	.	.
8d\J	.	.	16b/LL	.	.	.	.	.	.	.	.	.	.	.	.	.
.	.	.	16a/JJ	.	.	.	.	.	.	.	.	.	.	.	.	.
=17	=17	=17	=17	=17	=17	=17	=17	=17	=17	=17	=17	=17	=17	=17	=17	=17
8B\L	6_ 5_	.	4.g/	.	8ff#\L]	.	4B\	fi-	4d\	fi-	4g\	fi-	4ff#\	fi-	2r	2r
8B\	.	.	.	.	16gg\L	.	.	.	.	.	.	.	.	.	.	.
.	X X	.	.	.	16ff#\JJ	.	.	.	.	.	.	.	.	.	.	.
8c#\	.	.	.	.	[<4ee\	.	8c#\	-li-	8c#\	-li-	8g\	-li-	8ee\	-li-	.	.
8c#\J	.	.	16a/LL	.	.	.	8c#\	-is	8c#\	-is	8g\	-is	8ee\	-is	.	.
.	.	.	16g/JJ	.	.	.	.	.	.	.	.	.	.	.	.	.
!	!	!	!	!	!	!	!	!	!LO:LB:g=original	!	!	!	!	!	!	!
=18	=18	=18	=18	=18	=18	=18	=18	=18	=18	=18	=18	=18	=18	=18	=18	=18
!	!	!	!	!	!LO:N:xstem:cue	!	!	!	!	!	!	!	!	!	!	!
8A\L	6\ 5	.	4.f#/	.	8ee\]	.	4A\	tu-	4c#\	tu-	4f#\	tu-	4ee\	tu-	4r	4r
8A\	.	.	.	.	16ff#\LL	.	.	.	.	.	.	.	.	.	.	.
.	.	.	.	.	16ee\JJ	.	.	.	.	.	.	.	.	.	.	.
8B\	.	.	.	.	[<4dd\	.	4B\	-is	4B\	-is	4f#\	-is	4dd\	-is	8r	8r
8B\J	.	.	16g/LL	.	.	.	.	.	.	.	.	.	.	.	8d\	8f#\
.	.	.	16f#/JJ	.	.	.	.	.	.	.	.	.	.	.	.	.
!	!	!	!	!	!	!	!LO:LB:g=original	!	!	!	!	!	!	!	!	!
=19	=19	=19	=19	=19	=19	=19	=19	=19	=19	=19	=19	=19	=19	=19	=19	=19
*	*	*	*	*	*	*	*	*	*	*	*2\right	*	*	*	*	*
!	!	!	!	!	!LO:N:xstem:cue	!	!	!	!	!	!	!	!	!	!	!
8G\L	6 5	.	4.e/	.	8dd\]	.	4G\	in	(4B\	in	2e\	in	4dd\	in	4d\	2e\
8G\	.	.	.	.	16ee\LL	.	.	.	.	.	.	.	.	.	.	.
.	.	.	.	.	16dd\JJ	.	.	.	.	.	.	.	.	.	.	.
8A\	.	.	.	.	8.cc#\L	.	4A\	.	4A\)	.	.	.	4cc#\	.	4A/	.
8A\J	.	.	16d/LL	.	.	.	.	.	.	.	.	.	.	.	.	.
.	.	.	16e/JJ	.	32b\LL	.	.	.	.	.	.	.	.	.	.	.
.	.	.	.	.	32cc#\JJJ	.	.	.	.	.	.	.	.	.	.	.
=20	=20	=20	=20	=20	=20	=20	=20	=20	=20	=20	=20	=20	=20	=20	=20	=20
!LO:TX:a:i:t=Solo	!	!	!LO:TX:a:i:t=Solo	!	!LO:TX:a:i:t=Solo	!	!	!	!	!	!	!	!	!	!	!
4D\	.	.	8f#/	.	8dd\	.	4D\	te	4A\	te	4f#\	te	4dd\	te	4F#/	4d\
.	.	.	4d/	.	4dd\	.	.	.	.	.	.	.	.	.	.	.
4F#\	6 n5r	.	.	.	.	.	4r	.	4r	.	4r	.	4r	.	4r	4r
.	.	.	8cn/	.	8ccn\	.	.	.	.	.	.	.	.	.	.	.
=21	=21	=21	=21	=21	=21	=21	=21	=21	=21	=21	=21	=21	=21	=21	=21	=21
!	!	!	!	!	!	!	!	!	!	!	!LO:TX:a:i:t=Bas Solo	!	!LO:TX:a:i:t=Bas Solo	!	!	!
4G\	6 3	.	8B/	.	8b\	.	1r	.	0r	.	0r	.	0r	.	1r	1r
.	.	.	4e/	.	4ee\	.	.	.	.	.	.	.	.	.	.	.
4G#X\	6 5	.	.	.	.	.	.	.	.	.	.	.	.	.	.	.
.	.	.	8d/	.	8dd\	.	.	.	.	.	.	.	.	.	.	.
!	!	!	!LO:LB:g=original	!	!	!	!	!	!	!	!	!	!	!	!	!
=22	=22	=22	=22	=22	=22	=22	=22	=22	=22	=22	=22	=22	=22	=22	=22	=22
8A\L	#_	.	(8.cn/L	.	8.cc#X\L	.	.	.	.	.	.	.	.	.	.	.
8Gn\J	.	.	.	.	.	.	.	.	.	.	.	.	.	.	.	.
.	.	.	32B/LL)	.	32b\LL	.	.	.	.	.	.	.	.	.	.	.
.	.	.	32c/JJJ	.	32cc#\JJJ	.	.	.	.	.	.	.	.	.	.	.
4F#\	6	.	8d/L	.	8dd\L	.	.	.	.	.	.	.	.	.	.	.
.	.	.	8A/J	.	8a\J	.	.	.	.	.	.	.	.	.	.	.
!	!	!	!	!	!LO:LB:g=original	!	!	!	!	!	!	!	!	!	!	!
=23	=23	=23	=23	=23	=23	=23	=23	=23	=23	=23	=23	=23	=23	=23	=23	=23
4G\	6	.	8B/L	.	8b\L	.	2r	.	.	.	.	.	.	.	8r	8r
.	.	.	8g/	.	16gg\L	.	.	.	.	.	.	.	.	.	8e\L	8g\L
.	.	.	.	.	16ee\JJ	.	.	.	.	.	.	.	.	.	.	.
!LO:TX:t=P:problem:mixed beam	!	!	!	!	!	!	!	!	!	!	!	!	!	!	!	!
8A\L	4	.	8f#/	.	16ee\LL	.	.	.	.	.	.	.	.	.	8d\	8f#\
.	.	.	.	.	16dd\	.	.	.	.	.	.	.	.	.	.	.
8AA/J	3	.	8e/J	.	16dd\	.	.	.	.	.	.	.	.	.	8A\J	8e\J
.	.	.	.	.	16cc#\JJ	.	.	.	.	.	.	.	.	.	.	.
!LO:LB:g=original	!	!	!	!	!	!	!	!	!	!	!	!	!	!	!	!
=24	=24	=24	=24	=24	=24	=24	=24	=24	=24	=24	=24	=24	=24	=24	=24	=24
!	!	!	!	!LO:DY:t=p.	!LO:TX:t=P:problem:mixed beam	!	!LO:TX:a:i:t=Solo	!	!	!	!	!	!	!	!	!
8D|\L	.	p	8f#/L	p	8dd|\L	.	8r	.	.	.	.	.	.	.	4F#/	4d\
!	!	!	!	!	!	!LO:DY:t=p.	!	!	!	!	!	!	!	!	!	!
8D|\	.	.	8d/	.	8d|/	p	8D\	Qui	.	.	.	.	.	.	.	.
8F#|\	.	.	8f#/	.	8f#|/	.	8F#\	po-	.	.	.	.	.	.	4r	4r
8A|\J	.	.	8a/J	.	8a|/J	.	8A\	-su-	.	.	.	.	.	.	.	.
=25	=25	=25	=25	=25	=25	=25	=25	=25	=25	=25	=25	=25	=25	=25	=25	=25
4d|\	.	.	8dd\L	.	8dd|\L	.	4d\	-it	0r	.	0r	.	0r	.	1r	1r
.	.	.	16ff#\L	.	(16ff#\L	.	.	.	.	.	.	.	.	.	.	.
.	.	.	16dd\JJ	.	16dd\JJ)	.	.	.	.	.	.	.	.	.	.	.
4F#|\	.	.	8a/L	.	8a|/L	.	8A\	fi-	.	.	.	.	.	.	.	.
.	.	.	8a/J	.	8a|/J	.	8A\	-nes	.	.	.	.	.	.	.	.
=26	=26	=26	=26	=26	=26	=26	=26	=26	=26	=26	=26	=26	=26	=26	=26	=26
!	!	!	!	!	!	!	!LO:SIC:v:l:s=tu-	!	!	!	!	!	!	!	!	!
8B|\L	.	.	8b/L	.	8b|/L	.	8B\L	Su-	.	.	.	.	.	.	.	.
8G|\	.	.	8g/	.	8g|/	.	8G\J	.	.	.	.	.	.	.	.	.
8E|\	.	.	8e/	.	8e|/	.	8E\L	-os	.	.	.	.	.	.	.	.
8A|\J	.	.	8a/J	.	8a|/J	.	8A\J	.	.	.	.	.	.	.	.	.
=27	=27	=27	=27	=27	=27	=27	=27	=27	=27	=27	=27	=27	=27	=27	=27	=27
!	!	!	!	!LO:DY:t=f.	!	!LO:DY:t=for	!	!	!	!	!	!	!	!	!	!
8F#|\L	.	.	8f#/L	f	8f#|/L	f	8F#\	pa-	.	.	.	.	.	.	8r	8r
(16D\L	.	.	16d/L	.	16d/L	.	8D\	-cem	.	.	.	.	.	.	8D/L	8d\L
16E\JJ)	.	.	16e/JJ	.	16e/JJ	.	.	.	.	.	.	.	.	.	.	.
16F#|\LL	.	.	16f#/LL	.	16f#/LL	.	4r	.	.	.	.	.	.	.	8D/	8d\
16D|\	.	.	16d/	.	16d/	.	.	.	.	.	.	.	.	.	.	.
16F#|\	.	.	16f#/	.	16f#/	.	.	.	.	.	.	.	.	.	8D/J	8d\J
16A|\JJ	.	.	16a/JJ	.	16a/JJ	.	.	.	.	.	.	.	.	.	.	.
=28	=28	=28	=28	=28	=28	=28	=28	=28	=28	=28	=28	=28	=28	=28	=28	=28
!	!	!	!LO:TX:t=P:problem:mixed beam	!	!LO:TX:t=P:problem:mixed beam	!	!	!	!	!	!	!	!	!	!	!
8d|\L	.	.	8dd\L	.	8dd\L	.	8r	.	.	.	.	.	.	.	4D/	4d\
8D|\J	.	.	8d/J	.	8d/J	.	8d\	et	.	.	.	.	.	.	.	.
8r	.	.	8r	.	8r	p	16d\LL	a-	.	.	.	.	.	.	4r	4r
!	!	!	!	!LO:DY:t=p.	!	!	!	!	!	!	!	!	!	!	!	!
.	.	.	.	p	.	.	16c#\	.	.	.	.	.	.	.	.	.
8D\	6	.	8f#/	.	8dd\	.	16B\	.	.	.	.	.	.	.	.	.
.	5	.	.	.	.	.	16A\JJ	.	.	.	.	.	.	.	.	.
=29	=29	=29	=29	=29	=29	=29	=29	=29	=29	=29	=29	=29	=29	=29	=29	=29
4d\	#4r 2	.	4e/	.	4b\	.	8.G#X\	.	0r	.	1r	.	1r	.	0r	0r
.	.	.	.	.	.	.	32F#\LLL	-di-	.	.	.	.	.	.	.	.
!	!	!	!	!	!	!	!LO:S:vis16	!	!	!	!	!	!	!	!	!
.	.	.	.	.	.	.	32G#\JJJ	.	.	.	.	.	.	.	.	.
4c#\	6	.	4e/	.	4cc#\	.	8A\	-pe	.	.	.	.	.	.	.	.
.	.	.	.	.	.	.	8A\	fru-	.	.	.	.	.	.	.	.
!	!	!	!	!	!	!	!LO:LB:g=original	!	!	!	!	!	!	!	!	!
=30	=30	=30	=30	=30	=30	=30	=30	=30	=30	=30	=30	=30	=30	=30	=30	=30
4G#X\	6 5	.	4e/	.	4dd\	.	8.B\	-men-	.	.	.	.	.	.	.	.
.	.	.	.	.	.	.	32c#\LLL	.	.	.	.	.	.	.	.	.
.	.	.	.	.	.	.	32d\JJJ	.	.	.	.	.	.	.	.	.
8A\L	.	.	4e/	.	4cc#\	.	8c#\	-ti	.	.	.	.	.	.	.	.
8C#/J	6	.	.	.	.	.	8c#\	Sa-	.	.	.	.	.	.	.	.
=31	=31	=31	=31	=31	=31	=31	=31	=31	=31	=31	=31	=31	=31	=31	=31	=31
!LO:TX:t=P:problem:mixed beam	!	!	!	!	!	!	!	!	!	!	!	!	!	!	!	!
8D\L	6	.	8f#/L	.	8dd\L	.	8d\L	.	.	.	2r	.	2r	.	.	.
8D\	.	.	8b/	.	16ff#\L	.	8B\J	.	.	.	.	.	.	.	.	.
.	.	.	.	.	16dd\JJ	.	.	.	.	.	.	.	.	.	.	.
8E\	4	.	8a/	.	8cc#\L	.	8e\	-ti-	.	.	.	.	.	.	.	.
8EE/J	#	.	8g#X/J	.	8b\J	.	8E\	-at	.	.	.	.	.	.	.	.
!	!	!	!LO:LB:g=original	!	!LO:LB:g=original	!	!	!	!	!	!	!	!	!	!	!
=32	=32	=32	=32	=32	=32	=32	=32	=32	=32	=32	=32	=32	=32	=32	=32	=32
!	!	!	!	!	!	!	!	!	!	!	!LO:TX:a:i:t=Solo	!	!LO:TX:a:i:t=Solo	!	!	!
8AA/L	.	.	8a/L	.	8cc#\L	.	4A\	te	.	.	8a\	qui	8cc#\	Qui	.	.
8AA/	.	.	16a/L	.	16cc#\L	.	.	.	.	.	16a\LL	e-	16cc#\LL	e-	.	.
.	.	.	16g#X/JJ	.	16b\JJ	.	.	.	.	.	16g#X\JJ	.	16b\JJ	.	.	.
8C#/	.	.	8a/L	.	8cc#\L	.	4r	.	.	.	8a\	mit-	8cc#\	mit-	.	.
!	!	!	!	!	!	!	!	!	!	!	!LO:SIC:v:l:s=-tit	!	!	!	!	!
8E/J	#	.	8b/J	.	8dd\J	.	.	.	.	.	8b\	-tis	8dd\	-tit	.	.
=33	=33	=33	=33	=33	=33	=33	=33	=33	=33	=33	=33	=33	=33	=33	=33	=33
!	!	!	!	!	!	!	!LO:TX:a:i:t=alt Solo	!	!	!	!	!	!	!	!	!
8A\L	.	.	4.cc#\	.	4.ee\	.	0r	.	0r	.	4.cc#\	e-	4.ee\	e-	0r	0r
16A\L	.	.	.	.	.	.	.	.	.	.	.	.	.	.	.	.
16G#X\JJ	.	.	.	.	.	.	.	.	.	.	.	.	.	.	.	.
!LO:TX:t=P:problem:mixed beam	!	!	!	!	!	!	!	!	!	!	!	!	!	!	!	!
8A\L	.	.	.	.	.	.	.	.	.	.	.	.	.	.	.	.
8AA/J	.	.	16dd\LL	.	16ff#\LL	.	.	.	.	.	16dd\LL	-lo-	16ff#\LL	-lo-	.	.
.	.	.	16cc#\JJ	.	16ee\JJ	.	.	.	.	.	16cc#\JJ	.	16ee\JJ	.	.	.
!	!	!	!	!	!	!	!	!	!	!	!LO:PB:g=original	!	!LO:LB:g=original	!	!	!
=34	=34	=34	=34	=34	=34	=34	=34	=34	=34	=34	=34	=34	=34	=34	=34	=34
8E\L	4_ #_	.	8.b\L	.	8.dd\L	.	.	.	.	.	8.b\	-qui-	8.dd\	-qui-	.	.
8E\	.	.	.	.	.	.	.	.	.	.	.	.	.	.	.	.
.	.	.	32a\LL	.	32cc#\LL	.	.	.	.	.	32a\LLL	-um	32cc#\LLL	-um	.	.
.	.	.	32b\JJJ	.	32dd\JJJ	.	.	.	.	.	32b\JJJ	.	32dd\JJJ	.	.	.
8E\	.	.	8cc#\L	.	8ee\L	.	.	.	.	.	8cc#\	Su-	8ee\	Su-	.	.
8E\J	X X	.	8b\J	.	8dd\J	.	.	.	.	.	8b\	-um	8dd\	-um	.	.
!LO:LB:g=original	!	!	!	!	!	!	!	!	!	!	!	!	!	!	!	!
=35	=35	=35	=35	=35	=35	=35	=35	=35	=35	=35	=35	=35	=35	=35	=35	=35
!LO:TX:t=P:problem:mixed beam	!	!	!	!	!	!	!	!	!	!	!	!	!	!	!	!
8A\L	.	.	8b/L	.	8dd\L	.	.	.	.	.	8b\	ter-	8dd\	ter-	.	.
!	!	!	!	!	!	!	!	!	!	!	!LO:SIC:v:l:s=-rae	!	!LO:SIC:v:l:s=-rae	!	!	!
(32AA/LL	.	.	8a/J	.	8cc#\J	.	.	.	.	.	8a\	-re	8cc#\	-re	.	.
32BB/	.	.	.	.	.	.	.	.	.	.	.	.	.	.	.	.
32C#/	.	.	.	.	.	.	.	.	.	.	.	.	.	.	.	.
32BB/JJJ)	.	.	.	.	.	.	.	.	.	.	.	.	.	.	.	.
8AA/	.	.	8r	.	8r	.	.	.	.	.	8r	.	8r	.	.	.
8r	.	.	8a/	.	8cc#\	.	.	.	.	.	16a\	Ve-	16cc#\	Ve-	.	.
.	.	.	.	.	.	.	.	.	.	.	16a\	-lo-	16cc#\	-lo-	.	.
=36	=36	=36	=36	=36	=36	=36	=36	=36	=36	=36	=36	=36	=36	=36	=36	=36
8r	.	.	16a/LL	.	16cc#\LL	.	.	.	.	.	16a\LL	-ci-	16cc#\LL	-ci-	.	.
.	.	.	16g#X/J	.	16b\J	.	.	.	.	.	16g#X\JJ	.	16b\JJ	.	.	.
(16E\LL	#	.	8g#/J	.	8b\J	.	.	.	.	.	8g#\	ter	8b\	ter	.	.
16F#\	.	.	.	.	.	.	.	.	.	.	.	.	.	.	.	.
16G#X\	.	.	8r	.	8r	.	.	.	.	.	8r	.	8r	.	.	.
16F#\JJ)	.	.	.	.	.	.	.	.	.	.	.	.	.	.	.	.
8E\	.	.	8b/	.	8dd\	.	.	.	.	.	16b\	Ve-	16dd\	Ve-	.	.
.	.	.	.	.	.	.	.	.	.	.	16b\	-lo	16dd\	-lo	.	.
=37	=37	=37	=37	=37	=37	=37	=37	=37	=37	=37	=37	=37	=37	=37	=37	=37
8r	.	.	16b/LL	.	16dd\LL	.	0r	.	0r	.	16b\LL	ci-	16dd\LL	ci-	0r	0r
.	.	.	16a/J	.	16cc#\J	.	.	.	.	.	16a\JJ	.	16cc#\JJ	.	.	.
(16A\LL	.	.	8a/J	.	8cc#\J	.	.	.	.	.	8a\	-ter	8cc#\	-ter	.	.
16B\	.	.	.	.	.	.	.	.	.	.	.	.	.	.	.	.
16c#\	.	.	8r	.	8r	.	.	.	.	.	8r	.	8r	.	.	.
16B\JJ)	.	.	.	.	.	.	.	.	.	.	.	.	.	.	.	.
8A\	.	.	8a/	.	8cc#\	.	.	.	.	.	16cc#\	Cur-	16ee\	Cur-	.	.
.	.	.	.	.	.	.	.	.	.	.	16cc#\	-rit	16ee\	-rit	.	.
=38	=38	=38	=38	=38	=38	=38	=38	=38	=38	=38	=38	=38	=38	=38	=38	=38
8r	.	.	16cc#\LL	.	16ee\LL	.	.	.	.	.	16cc#\LL	Ser-	16ee\LL	Ser-	.	.
.	.	.	16b\	.	16dd\	.	.	.	.	.	16b\JJ	.	16dd\JJ	.	.	.
8D\L	6	.	16dd\	.	16ff#\	.	.	.	.	.	16dd\LL	-mo	16ff#\LL	-mo	.	.
.	.	.	16b\JJ	.	16dd\JJ	.	.	.	.	.	16b\JJ	.	16dd\JJ	.	.	.
!	!	!	!	!	!	!	!	!	!	!	!LO:LB:g=original	!	!	!	!	!
8E\	4	.	8a/L	.	8cc#\L	.	.	.	.	.	8a\L	-e-	8cc#\L	-e-	.	.
8EE/J	#	.	8g#X/J	.	8b\J	.	.	.	.	.	8g#X\J	.	8b\J	.	.	.
!	!	!	!	!	!	!	!	!	!	!	!	!	!LO:LB:g=original	!	!	!
=39	=39	=39	=39	=39	=39	=39	=39	=39	=39	=39	=39	=39	=39	=39	=39	=39
!	!	!LO:DY:t=for	!	!	!LO:N:vis=16	!	!	!	!	!	!	!	!	!	!	!
8AA/	.	f	8a/	.	8cc#\	.	.	.	.	.	4a\	-ius	4cc#\	-ius	.	.
16r	.	.	16r	.	16r	.	.	.	.	.	.	.	.	.	.	.
*Xtuplet	*	*	*Xtuplet	*	*Xtuplet	*	*	*	*	*	*	*	*	*	*	*
!	!	!	!	!LO:DY:t=for	!	!LO:DY:t=for.	!	!	!	!	!	!	!	!	!	!
(48E\LLL	.	.	(48e/LLL	f	(48e/LLL	f	.	.	.	.	.	.	.	.	.	.
48F#\	.	.	48f#/	.	48f#/	.	.	.	.	.	.	.	.	.	.	.
48G#X\JJJ)	.	.	48g#X/JJJ)	.	48g#JJJ)	.	.	.	.	.	.	.	.	.	.	.
16A|\LL	.	.	16a|/LL	.	16a/LL|	.	.	.	.	.	4r	.	4r	.	.	.
16B|\	.	.	16b|/	.	16b/|	.	.	.	.	.	.	.	.	.	.	.
16c#|\	.	.	16cc#|/	.	16cc#/|	.	.	.	.	.	.	.	.	.	.	.
16B|\JJ	.	.	16b|/JJ	.	16bJJ/|	.	.	.	.	.	.	.	.	.	.	.
!	!	!	!LO:LB:g=original	!	!LO:LB:g=original	!	!	!	!	!	!	!	!	!	!	!
=40	=40	=40	=40	=40	=40	=40	=40	=40	=40	=40	=40	=40	=40	=40	=40	=40
16A|\LL	.	.	16a|/LL	.	16a|/LL	.	.	.	.	.	1r	.	1r	.	.	.
16G#X|\	.	.	16g#X|/	.	16g#X|/	.	.	.	.	.	.	.	.	.	.	.
16F#|\	.	.	16f#|/	.	16f#|/	.	.	.	.	.	.	.	.	.	.	.
16E|\JJ	.	.	16e|/JJ	.	16e|/JJ	.	.	.	.	.	.	.	.	.	.	.
16F#|\LL	.	.	16f#|/LL	.	16f#|/LL	.	.	.	.	.	.	.	.	.	.	.
16G#|\	.	.	16g#|/	.	16g#|/	.	.	.	.	.	.	.	.	.	.	.
16A|\	.	.	16a|/	.	16a|/	.	.	.	.	.	.	.	.	.	.	.
16G#|\JJ	.	.	16g#|/JJ	.	16g#|/JJ	.	.	.	.	.	.	.	.	.	.	.
=41	=41	=41	=41	=41	=41	=41	=41	=41	=41	=41	=41	=41	=41	=41	=41	=41
16F#|\LL	.	.	16f#|/LL	.	16f#|/LL	.	1r	.	1r	.	.	.	.	.	1r	1r
16E|\	.	.	16e|/	.	16e|/	.	.	.	.	.	.	.	.	.	.	.
16D|\	.	.	16d|/	.	16d|/	.	.	.	.	.	.	.	.	.	.	.
16C#|\JJ	.	.	16c#|/JJ	.	16c#|/JJ	.	.	.	.	.	.	.	.	.	.	.
16D|\LL	.	.	16d|/LL	.	16d|/LL	.	.	.	.	.	.	.	.	.	.	.
16E|\	.	.	16e|/	.	16e|/	.	.	.	.	.	.	.	.	.	.	.
16F#|\	.	.	16f#|/	.	16f#|/	.	.	.	.	.	.	.	.	.	.	.
16E|\JJ	.	.	16e|/JJ	.	16e|/JJ	.	.	.	.	.	.	.	.	.	.	.
!LO:LB:g=original	!	!	!	!	!	!	!	!	!	!	!	!	!	!	!	!
=42	=42	=42	=42	=42	=42	=42	=42	=42	=42	=42	=42	=42	=42	=42	=42	=42
16D|/LL	.	.	16d|/LL	.	16d|/LL	.	.	.	.	.	2r	.	2r	.	.	.
16BB|/	.	.	16B|/	.	16B|/	.	.	.	.	.	.	.	.	.	.	.
16C#|/	.	.	16c#|/	.	16c#|/	.	.	.	.	.	.	.	.	.	.	.
16D|/JJ	.	.	16d|/JJ	.	16d|/JJ	.	.	.	.	.	.	.	.	.	.	.
!LO:TX:t=P:problem:mixed beam	!	!	!	!	!	!	!	!	!	!	!	!	!	!	!	!
8E|\L	.	.	8e|/L	.	8e|/L	.	.	.	.	.	.	.	.	.	.	.
8FF#|/J	.	.	8e|/J	.	8e|/J	.	.	.	.	.	.	.	.	.	.	.
=43	=43	=43	=43	=43	=43	=43	=43	=43	=43	=43	=43	=43	=43	=43	=43	=43
!LO:TX:a:i:t=tutti	!	!	!	!LO:DY:t=for	!	!	!	!	!	!	!	!	!	!	!	!
4AA/	.	.	8c#/	f	8a/	.	4A\	qui	4e\	qui	4a\	qui	4cc#\	qui	4A/	4e\
.	.	.	4a/	.	4aa\	.	.	.	.	.	.	.	.	.	.	.
4A\	.	.	.	.	.	.	4A\	dat	4e\	dat	4a\	dat	4cc#\	dat	4r	4r
.	.	.	8cc#\	.	8ccc#\	.	.	.	.	.	.	.	.	.	.	.
=44	=44	=44	=44	=44	=44	=44	=44	=44	=44	=44	=44	=44	=44	=44	=44	=44
4D\	6	.	8b/	.	8bb\	.	4D\	ni-	4f#\	ni-	4a\	ni-	4dd\	ni-	0r	0r
.	5	.	4a/	.	4aa\	.	.	.	.	.	.	.	.	.	.	.
4E\	#	.	.	.	.	.	4E\	-vem	4e\	-vem	4g#X\	-vem	4b\	-vem	.	.
.	.	.	8g#X/	.	8gg#X\	.	.	.	.	.	.	.	.	.	.	.
=45	=45	=45	=45	=45	=45	=45	=45	=45	=45	=45	=45	=45	=45	=45	=45	=45
4F#\	.	.	8.cc#/L	.	(8.aaT\L	.	4F#\	Si-	4f#\	Si-	4a\	Si-	4cc#\	Si-	.	.
.	.	.	32g#X/LL	.	32gg#X\LL	.	.	.	.	.	.	.	.	.	.	.
.	.	.	32a/JJJ	.	32aa\JJJ)	.	.	.	.	.	.	.	.	.	.	.
4D#X\	6 5	.	8b/L	.	8bb|\L	.	4D#X\	-cut	4f#\	-cut	4a\	-cut	4b\	-cut	.	.
.	.	.	8a/J	.	8aa|\J	.	.	.	.	.	.	.	.	.	.	.
=46	=46	=46	=46	=46	=46	=46	=46	=46	=46	=46	=46	=46	=46	=46	=46	=46
!LO:TX:t=P:problem:mixed beam	!	!	!	!	!	!	!	!	!	!	!	!	!	!	!	!
8E\L	7_	.	8.cc#/L	.	(8.aaT\L	.	4E\	la-	4e\	la-	4a\	la-	4cc#\	la-	.	.
8EE/	.	.	.	.	.	.	.	.	.	.	.	.	.	.	.	.
.	.	.	32g#X/LL	.	32gg#X\LL	.	.	.	.	.	.	.	.	.	.	.
.	.	.	32a/JJJ	.	32aa\JJJ)	.	.	.	.	.	.	.	.	.	.	.
8E\J	#	.	8g#/L	.	8bb|\L	.	8E\	-nam	8e\	-nam	8g#X\	-nam	8b\	-nam	.	.
8r	.	.	[8e/J	.	[<8ee|\J	.	8r	.	8r	.	8r	.	8r	.	.	.
!	!	!	!	!	!LO:LB:g=original	!	!	!	!	!	!	!	!	!	!	!
=47	=47	=47	=47	=47	=47	=47	=47	=47	=47	=47	=47	=47	=47	=47	=47	=47
!	!	!	!	!	!LO:TX:t=P:problem:brak zakończenia ligatury	!	!	!	!	!	!	!	!	!	!	!
4G#X\	6	.	8e/]	.	8ee\]	.	4G#X\	Ne-	4e\	ne-	4b\	ne-	4dd\	ne-	.	.
.	5	.	4d/	.	4dd\	.	.	.	.	.	.	.	.	.	.	.
4A\	3	.	.	.	.	.	8A\	-bu-	8e\	-bu-	8a\	-bu-	8cc#\	-bu-	.	.
.	.	.	[8c#/	.	[<8cc#\	.	8A\	-lam	8e\	-lam	8a\	-lam	8cc#\	-lam	.	.
!	!	!	!LO:LB:g=original	!	!	!	!	!	!	!	!	!	!	!	!	!
=48	=48	=48	=48	=48	=48	=48	=48	=48	=48	=48	=48	=48	=48	=48	=48	=48
!	!	!	!LO:TX:t=P:problem:brak zakończenia ligatury	!	!	!	!	!	!	!	!	!	!	!	!	!
4B\	.	.	8c#/]	.	8cc#\]	.	4B\	Si-	4e\	Si-	4g#X\	Si-	4dd\	Si-	4r	4r
.	.	.	4d/	.	4dd\	.	.	.	.	.	.	.	.	.	.	.
4G#X\	5	.	.	.	.	.	4G#X\	-cut	4e\	-cut	4b\	-cut	4dd\	-cut	8r	8r
.	6	.	[8e/	.	[<8ee\	.	.	.	.	.	.	.	.	.	8e\	8e\
!	!	!	!	!	!	!	!LO:LB:g=original	!	!LO:LB:g=original	!	!	!	!	!	!	!
=49	=49	=49	=49	=49	=49	=49	=49	=49	=49	=49	=49	=49	=49	=49	=49	=49
4A\	.	.	8e/]	.	8ee\]	.	4A\	Ci-	4e\	Ci-	4a\	Ci-	4cc#\	Ci-	4A/	4f#\
.	.	.	4a/	.	4aa\	.	.	.	.	.	.	.	.	.	.	.
4F#\	.	.	.	.	.	.	8F#\	-ne-	8f#\	-ne-	8a\	-ne-	8cc#\	-ne-	4A/	4f#\
.	.	.	8cc#\	.	8ccc#\	.	8F#\	-rem	8f#\	-rem	8a\	-rem	8cc#\	-rem	.	.
!	!	!	!	!	!	!	!	!	!	!	!LO:LB:g=original	!	!LO:LB:g=original	!	!LO:LB:g=original	!LO:LB:g=original
=50	=50	=50	=50	=50	=50	=50	=50	=50	=50	=50	=50	=50	=50	=50	=50	=50
*	*	*	*	*	*	*	*	*	*	*	*	*	*2\right	*	*	*
4D\	6 5	.	8b/	.	8bb\	.	4D\	Spar	(4f#\	Spar	4a\	Spar	2b\	Spar	4d\	4f#\
.	.	.	4a/	.	4aa\	.	.	.	.	.	.	.	.	.	.	.
4E\	#	.	.	.	.	.	4E\	.	4e\)	.	4g#X\	.	.	.	4e\	4e\
.	.	.	8g#X/	.	8gg#X\	.	.	.	.	.	.	.	.	.	.	.
=51	=51	=51	=51	=51	=51	=51	=51	=51	=51	=51	=51	=51	=51	=51	=51	=51
!	!	!	!	!	!LO:TX:a:i:t=Solo	!	!	!	!	!	!	!	!	!	!	!
4AA/	.	.	8a|/L	.	8aa\L	.	4AA/	git	4e\	git	4a\	git	4cc#\	git	4A/	4e\
!	!	!	!	!	!LO:TX:a:i:t=dol	!	!	!	!	!	!	!	!	!	!	!
.	.	.	8gn|/	.	8ggn\	.	.	.	.	.	.	.	.	.	.	.
4r	.	.	8f#|/	.	8ff#\	.	4r	.	4r	.	4r	.	4r	.	4r	4r
.	.	.	8e|/J	.	8ee\J	.	.	.	.	.	.	.	.	.	.	.
=52	=52	=52	=52	=52	=52	=52	=52	=52	=52	=52	=52	=52	=52	=52	=52	=52
!	!	!LO:DY:rj:t=p&colon;	!	!	!	!	!	!	!	!	!	!	!	!	!	!
8r	.	p	(4.d#X/	.	(4.dd#X\	.	0r	.	0r	.	0r	.	0r	.	0r	0r
8A\L	#4r 2	.	.	.	.	.	.	.	.	.	.	.	.	.	.	.
8F#\	.	.	.	.	.	.	.	.	.	.	.	.	.	.	.	.
8D#X\J	.	.	16e/LL)	.	16ee\LL	.	.	.	.	.	.	.	.	.	.	.
.	.	.	16f#/JJ	.	16ff#\JJ)	.	.	.	.	.	.	.	.	.	.	.
=53	=53	=53	=53	=53	=53	=53	=53	=53	=53	=53	=53	=53	=53	=53	=53	=53
4E\	n	.	8g|/L	.	8gg|\L	.	.	.	.	.	.	.	.	.	.	.
.	.	.	8f#|/	.	8ff#|\	.	.	.	.	.	.	.	.	.	.	.
4r	.	.	8e|/	.	8ee|\	.	.	.	.	.	.	.	.	.	.	.
.	.	.	8dn|/J	.	8ddn|\J	.	.	.	.	.	.	.	.	.	.	.
!LO:PB:g=original	!	!	!	!	!	!	!	!	!	!	!	!	!	!	!	!
=54	=54	=54	=54	=54	=54	=54	=54	=54	=54	=54	=54	=54	=54	=54	=54	=54
8r	.	.	4.c#/	.	4.cc#\	.	.	.	.	.	.	.	.	.	.	.
8Gn\L	4_ 2_	.	.	.	.	.	.	.	.	.	.	.	.	.	.	.
8E\	.	.	.	.	.	.	.	.	.	.	.	.	.	.	.	.
8C#\J	.	.	16d/LL	.	16dd\LL	.	.	.	.	.	.	.	.	.	.	.
.	X X	.	16e/JJ	.	16ee\JJ	.	.	.	.	.	.	.	.	.	.	.
=55	=55	=55	=55	=55	=55	=55	=55	=55	=55	=55	=55	=55	=55	=55	=55	=55
4Dn\	.	.	8f#/L	.	8ff#\L	.	.	.	.	.	.	.	.	.	.	.
.	.	.	8e/	.	8ee\	.	.	.	.	.	.	.	.	.	.	.
!	!	!	!LO:SIC:v:s=8d#/	!	!	!	!	!	!	!	!	!	!	!	!	!
8r	.	.	8d/	.	8dd\J	.	.	.	.	.	.	.	.	.	.	.
!	!	!	!LO:SIC:v:s=[8d#/J	!	!	!	!	!	!	!	!	!	!	!	!	!
8F#\	6\	.	[8d/J	.	[<8dd#X\	.	.	.	.	.	.	.	.	.	.	.
!	!	!	!	!	!LO:LB:g=original	!	!	!	!	!	!	!	!	!	!	!
=56	=56	=56	=56	=56	=56	=56	=56	=56	=56	=56	=56	=56	=56	=56	=56	=56
!	!	!	!LO:SIC:v:s=8d/]	!	!LO:TX:t=P:problem:brak zakończenia ligatury	!	!	!	!	!	!	!	!	!	!	!
4G\	#5r	.	8d/]	.	8dd#\]	.	0r	.	0r	.	0r	.	0r	.	0r	0r
.	6	.	4e/	.	4ee\	.	.	.	.	.	.	.	.	.	.	.
4A\	5	.	.	.	.	.	.	.	.	.	.	.	.	.	.	.
.	6	.	[8f#/	.	[<8ff#\	.	.	.	.	.	.	.	.	.	.	.
=57	=57	=57	=57	=57	=57	=57	=57	=57	=57	=57	=57	=57	=57	=57	=57	=57
4B\	5	.	8f#/]	.	8ff#\]	.	.	.	.	.	.	.	.	.	.	.
.	6	.	4g/	.	4gg\	.	.	.	.	.	.	.	.	.	.	.
4A\	7	.	.	.	.	.	.	.	.	.	.	.	.	.	.	.
.	6	.	[8f#/	.	[<8ff#\	.	.	.	.	.	.	.	.	.	.	.
=58	=58	=58	=58	=58	=58	=58	=58	=58	=58	=58	=58	=58	=58	=58	=58	=58
4G\	7	.	8f#/]	.	8ff#\]	.	.	.	.	.	.	.	.	.	.	.
.	6	.	4e/	.	4ee\	.	.	.	.	.	.	.	.	.	.	.
4G#X\	6	.	.	.	.	.	.	.	.	.	.	.	.	.	.	.
.	5	.	8d/	.	8dd\	.	.	.	.	.	.	.	.	.	.	.
!	!	!	!LO:LB:g=original	!	!	!	!	!	!	!	!	!	!	!	!	!
=59	=59	=59	=59	=59	=59	=59	=59	=59	=59	=59	=59	=59	=59	=59	=59	=59
4A\	3	.	4c#/	.	8cc#\L	.	.	.	.	.	.	.	.	.	.	.
.	.	.	.	.	16qqgg#X/	.	.	.	.	.	.	.	.	.	.	.
.	.	.	.	.	8aa\J	.	.	.	.	.	.	.	.	.	.	.
4r	.	.	4r	.	16ggn\LL	.	.	.	.	.	.	.	.	.	.	.
.	.	.	.	.	16ff#\	.	.	.	.	.	.	.	.	.	.	.
.	.	.	.	.	16ee\	.	.	.	.	.	.	.	.	.	.	.
.	.	.	.	.	16dd\JJ	.	.	.	.	.	.	.	.	.	.	.
=60	=60	=60	=60	=60	=60	=60	=60	=60	=60	=60	=60	=60	=60	=60	=60	=60
8r	.	.	8r	.	4.cc#\	.	0r	.	0r	.	0r	.	0r	.	2A/	2e\
8AA/L	.	.	8e/L	.	.	.	.	.	.	.	.	.	.	.	.	.
8AA/	.	.	8e/	.	.	.	.	.	.	.	.	.	.	.	.	.
8AA/J	.	.	8e/J	.	16b\LL	.	.	.	.	.	.	.	.	.	.	.
.	.	.	.	.	16cc#\JJ	.	.	.	.	.	.	.	.	.	.	.
=61	=61	=61	=61	=61	=61	=61	=61	=61	=61	=61	=61	=61	=61	=61	=61	=61
4D\	.	.	4f#/	.	8dd\L	.	.	.	.	.	.	.	.	.	2F#/	2d\
.	.	.	.	.	16qqgg#X/	.	.	.	.	.	.	.	.	.	.	.
.	.	.	.	.	8aa\J	.	.	.	.	.	.	.	.	.	.	.
4r	.	.	4r	.	16ggn\LL	.	.	.	.	.	.	.	.	.	.	.
.	.	.	.	.	16ff#\	.	.	.	.	.	.	.	.	.	.	.
.	.	.	.	.	16ee\	.	.	.	.	.	.	.	.	.	.	.
.	.	.	.	.	16dd\JJ	.	.	.	.	.	.	.	.	.	.	.
=62	=62	=62	=62	=62	=62	=62	=62	=62	=62	=62	=62	=62	=62	=62	=62	=62
8r	.	.	8r	.	4.cc#\	.	.	.	.	.	.	.	.	.	2A/	2e\
8AA/L	.	.	8e/L	.	.	.	.	.	.	.	.	.	.	.	.	.
8AA/	.	.	8e/	.	.	.	.	.	.	.	.	.	.	.	.	.
8AA/J	.	.	8e/J	.	16b\LL	.	.	.	.	.	.	.	.	.	.	.
.	.	.	.	.	16cc#\JJ	.	.	.	.	.	.	.	.	.	.	.
=63	=63	=63	=63	=63	=63	=63	=63	=63	=63	=63	=63	=63	=63	=63	=63	=63
4D\	.	.	4f#/	.	4dd\	.	.	.	.	.	.	.	.	.	4F#/	4d\
4r	.	.	4r	.	4r	.	.	.	.	.	.	.	.	.	4r	4r
!	!	!	!	!	!LO:PB:g=original	!	!	!	!	!	!	!	!	!	!	!
=64	=64	=64	=64	=64	=64	=64	=64	=64	=64	=64	=64	=64	=64	=64	=64	=64
!LO:TX:a:i:t=tutti	!	!	!	!LO:DY:rj:t=for	!	!LO:DY:t=for	!	!	!	!	!	!	!	!	!	!
8F#\L	.	.	8r	f	8r	f	8F#\	mit-	8c#\	Mit-	8a\	mit-	8ff#\	mit-	0r	0r
8F#\J	.	.	32a/LLL	.	32ff#\LLL	.	8F#\	-tit	8c#\	-tit	8a\	-tit	8ff#\	-tit	.	.
.	.	.	(32g#X/	.	(32ee#X\	.	.	.	.	.	.	.	.	.	.	.
.	.	.	32a/	.	32ff#\	.	.	.	.	.	.	.	.	.	.	.
.	.	.	32b/JJ)	.	32gg#X\JJ)	.	.	.	.	.	.	.	.	.	.	.
8r	.	.	8cc#/J	.	8aa|\J	.	8r	.	8r	.	8r	.	8r	.	.	.
8F#\	.	.	8r	.	8r	.	8F#\	Cry-	8c#\	Cry-	8a\	Cry-	8ff#\	Cry-	.	.
=65	=65	=65	=65	=65	=65	=65	=65	=65	=65	=65	=65	=65	=65	=65	=65	=65
!	!	!	!	!	!	!	!LO:SIC:v:l:s=-stal-	!	!LO:SIC:v:l:s=-stal-	!	!LO:SIC:v:l:s=-stal-	!	!LO:SIC:v:l:s=-stal-	!	!	!
8E#X\L	6_ 5_	.	8r	.	8r	.	8E#X\	-sta-	8c#\	-sta-	8b\	-sta-	8gg#X\	-sta-	.	.
8E#\J	.	.	32b\LLL	.	32gg#X\LLL	.	8E#\	-lum	8c#\	-lum	8b\	-lum	8gg#\	-lum	.	.
.	.	.	(32a\	.	(32ff#\	.	.	.	.	.	.	.	.	.	.	.
.	.	.	32b\	.	32gg#\	.	.	.	.	.	.	.	.	.	.	.
.	.	.	32cc#\JJ)	.	32aa\JJ)	.	.	.	.	.	.	.	.	.	.	.
8r	X X	.	8b|\J	.	8gg#|\J	.	8r	.	8r	.	8r	.	8r	.	.	.
8E#\	.	.	8r	.	8r	.	8E#\	Su-	8c#\	Su-	8b\	Su-	8gg#\	Su-	.	.
!LO:LB:g=original	!	!	!	!	!	!	!	!	!	!	!	!	!	!	!	!
=66	=66	=66	=66	=66	=66	=66	=66	=66	=66	=66	=66	=66	=66	=66	=66	=66
8F#\L	.	.	8r	.	8r	.	8F#\	-am	8c#\	-am	8a\	-am	8ff#\	-am	.	.
8F#\	.	.	(32a/LLL	.	(32ff#\LLL	.	8F#\	Si-	8c#\	Si-	8a\	Si-	8ff#\	Si-	.	.
.	.	.	32g#X/	.	32ee#X\	.	.	.	.	.	.	.	.	.	.	.
.	.	.	32a/	.	32ff#\	.	.	.	.	.	.	.	.	.	.	.
.	.	.	32b/JJJ)	.	32gg#X\JJJ)	.	.	.	.	.	.	.	.	.	.	.
8A\	.	.	8cc#|/L	.	16ff#\LL	.	8A\	-cut	8c#\	-cut	8a\	-cut	8ff#\	-cut	.	.
.	.	.	.	.	16cc#\	.	.	.	.	.	.	.	.	.	.	.
!	!	!	!	!	!	!	!	!	!LO:SIC:v:l:s=-buc-	!	!LO:SIC:v:l:s=-buc-	!	!LO:SIC:v:l:s=-buc-	!	!	!
8F#\J	.	.	8a|/J	.	16aa\	.	8F#\	buc-	8c#\	bu-	8a\	bu-	8ff#\	bu-	.	.
.	.	.	.	.	16ff#\JJ	.	.	.	.	.	.	.	.	.	.	.
=67	=67	=67	=67	=67	=67	=67	=67	=67	=67	=67	=67	=67	=67	=67	=67	=67
!LO:TX:t=P:problem:mixed beam	!	!	!	!	!	!	!	!	!	!	!	!	!	!	!	!
8c#\L	6 4	.	8a/L	.	8ff#\L	.	8c#\	-cel-	8c#\	-cel-	8a\	-cel-	8ff#\	-cel-	.	.
8C#/J	#5r #	.	8g#X/J	.	8ee#X|\J	.	8C#/	-las	8c#\	-las	8g#X\	-las	8ee#X\	-las	.	.
16E#X\LL	6_	.	16e#X|/LL	.	16e#X|/LL	.	8c#\	an-	8c#\	an-	8cc#\	an-	8cc#\	an-	.	.
16F#\	.	.	16f#|/	.	16f#|/	.	.	.	.	.	.	.	.	.	.	.
16G#X\	.	.	16g#|/	.	16g#X|/	.	8c#\	-te	8c#\	-te	8cc#\	-te	8cc#\	-te	.	.
16E#\JJ	X	.	16e#|/JJ	.	16e#|/JJ	.	.	.	.	.	.	.	.	.	.	.
!	!	!	!LO:LB:g=original	!	!	!	!	!	!LO:LB:g=original	!	!	!	!LO:LB:g=original	!	!	!
=68	=68	=68	=68	=68	=68	=68	=68	=68	=68	=68	=68	=68	=68	=68	=68	=68
(16F#\LL	.	.	16f#|/LL	.	16f#|/LL	.	8.c#\	fa-	8.c#\	fa-	8.cc#\	fa-	8.cc#\	fa-	0r	0r
16G#X\	.	.	16g#X|/	.	16g#X|/	.	.	.	.	.	.	.	.	.	.	.
16A\	.	.	16a|/	.	16a|/	.	.	.	.	.	.	.	.	.	.	.
16G#\JJ)	.	.	16g#|/JJ	.	16g#|/JJ	.	16B\	-ci-	16B\	-ci-	16b\	-ci-	16b\	-ci-	.	.
!	!	!	!	!	!	!	!LO:LB:g=original	!	!	!	!	!	!	!	!	!
16F#\LL	.	.	16f#|/LL	.	16f#|/LL	.	8A\	-em	8A\	-em	8a\	-em	8a\	-em	.	.
16G#\	.	.	16g#|/	.	16g#|/	.	.	.	.	.	.	.	.	.	.	.
16A\	.	.	16a|/	.	16a|/	.	8r	.	8r	.	8r	.	8r	.	.	.
16F#\JJ	.	.	16f#|/JJ	.	16f#|/JJ	.	.	.	.	.	.	.	.	.	.	.
!	!	!	!	!	!	!	!	!	!	!	!LO:LB:g=original	!	!	!	!	!
=69	=69	=69	=69	=69	=69	=69	=69	=69	=69	=69	=69	=69	=69	=69	=69	=69
16E#X\LL	6_	.	16e#X|/LL	.	16e#X|/LL	.	8r	.	8r	.	8r	.	8r	.	.	.
16F#\	.	.	16f#|/	.	16f#|/	.	.	.	.	.	.	.	.	.	.	.
16G#X\	.	.	16g#X|/	.	16g#X|/	.	8c#\	fri-	8c#\	fri-	8cc#\	fri-	8cc#\	fri-	.	.
16F#\JJ	.	.	16f#|/JJ	.	16f#|/JJ	.	.	.	.	.	.	.	.	.	.	.
16E#\LL	.	.	16e#|/LL	.	16e#|/LL	.	8c#\	-go-	8c#\	-go-	8cc#\	-go-	8cc#\	-go-	.	.
16F#\	.	.	16f#|/	.	16f#|/	.	.	.	.	.	.	.	.	.	.	.
16G#\	.	.	16g#|/	.	16g#|/	.	8c#\	-ris	8c#\	-ris	8cc#\	-ris	8cc#\	-ris	.	.
16E#\JJ	X	.	16e#|/JJ	.	16e#|/JJ	.	.	.	.	.	.	.	.	.	.	.
!	!	!	!	!	!LO:LB:g=original	!	!	!	!	!	!	!	!	!	!	!
=70	=70	=70	=70	=70	=70	=70	=70	=70	=70	=70	=70	=70	=70	=70	=70	=70
16F#\LL	.	.	16f#|/LL	.	16f#|/LL	.	8.c#\L	e-	8.c#\L	e-	8.cc#\L	e-	8.cc#\L	e-	.	.
16G#X\	.	.	16g#X|/	.	16g#X|/	.	.	.	.	.	.	.	.	.	.	.
16A\	.	.	16a|/	.	16a|/	.	.	.	.	.	.	.	.	.	.	.
16G#\JJ	.	.	16g#|/JJ	.	16g#|/JJ	.	16B\Jk	.	16B\Jk	.	16b\Jk	.	16b\Jk	.	.	.
8F#\	.	.	8f#|/	.	8f#|/	.	8A\	-ius	8A\	-ius	8a\	-ius	8a\	-ius	.	.
8r	.	.	8r	.	8r	.	8r	.	8r	.	8r	.	8r	.	.	.
=71	=71	=71	=71	=71	=71	=71	=71	=71	=71	=71	=71	=71	=71	=71	=71	=71
8r	.	.	8r	.	8r	.	8E#X\	quis	8c#\	quis	8g#X\	quis	8b\	quis	.	.
32E#X\LLL	#	.	32g#X/LLL	.	(32g#X/LLL	.	8r	.	8r	.	8r	.	8r	.	.	.
32F#\	3	.	(32a/	.	32a/	.	.	.	.	.	.	.	.	.	.	.
32E#\	#	.	32g#/	.	32g#/	.	.	.	.	.	.	.	.	.	.	.
32D\JJ	3	.	32f#/JJ)	.	32f#/JJ)	.	.	.	.	.	.	.	.	.	.	.
8C#\J	#	.	8e#X/J|	.	8e#X/J|	.	4r	.	4r	.	4r	.	4r	.	.	.
8r	.	.	8r	.	8r	.	.	.	.	.	.	.	.	.	.	.
=72	=72	=72	=72	=72	=72	=72	=72	=72	=72	=72	=72	=72	=72	=72	=72	=72
*	*	*	*	*	*	*	*	*ij	*	*ij	*	*ij	*	*ij	*	*
8r	.	.	8r	.	8r	.	8F#\	quis	8c#\	quis	8f#\	quis	8a\	quis	1r	1r
32F#\LLL	3	.	32a/LLL	.	(32a/LLL	.	8r	.	8r	.	8r	.	8r	.	.	.
32E#X\	#	.	(32g#X/	.	32g#X/	.	.	.	.	.	.	.	.	.	.	.
32F#\	3	.	32a/	.	32a/	.	.	.	.	.	.	.	.	.	.	.
32G#X\JJJ	3	.	32b/JJJ)	.	32b/JJJ)	.	.	.	.	.	.	.	.	.	.	.
8A\L	3	.	8cc#/L	.	8cc#|\L	.	8r	.	8r	.	8r	.	8r	.	.	.
8F#\J	3	.	8a/J	.	8ff#|\J	.	8F#\	quis	8c#\	quis	8a\	quis	8ff#\	quis	.	.
*	*	*	*	*	*	*	*	*Xij	*	*Xij	*	*Xij	*	*Xij	*	*
=73	=73	=73	=73	=73	=73	=73	=73	=73	=73	=73	=73	=73	=73	=73	=73	=73
!LO:TX:t=P:problem:mixed beam	!	!	!	!	!	!	!	!	!	!	!	!	!	!	!	!
8B\L	6_	.	8b\L	.	8gg#X\L	.	8B\	Suſ-	8d\	Suſ-	8b\	Suſ-	8gg#X\	Suſ-	.	.
8B\	.	.	16dd\L	.	16bb\L	.	8B\	-ti-	8d\	-ti-	8b\	-ti-	8gg#\	-ti-	.	.
.	.	.	16b\JJ	.	16gg#\JJ	.	.	.	.	.	.	.	.	.	.	.
!	!	!	!	!	!	!	!LO:TX:t=P:problem:mixed beam	!	!	!	!	!	!	!	!	!
8c#\	4	.	8a/L	.	8ff#\L	.	8c#\L	-ne-	4c#\	-ne-	8a\L	-ne-	8ff#\L	-ne-	.	.
8C#/J	#	.	8g#X/J	.	8ee#X\J	.	8C#/J	.	.	.	8g#X\J	.	8ee#X\J	.	.	.
!LO:LB:g=original	!	!	!	!	!	!	!	!	!	!	!	!	!	!	!	!
=74	=74	=74	=74	=74	=74	=74	=74	=74	=74	=74	=74	=74	=74	=74	=74	=74
8F#\L	.	.	8a/L	.	4.ff#\	.	4F#\	-bit	4c#\	-bit	4a\	-bit	4ff#\	-bit	2F#/	2f#\
8F#\	.	.	8a/	.	.	.	.	.	.	.	.	.	.	.	.	.
!	!	!	!	!	!	!	!	!	!LO:SIC:v:l:s=e-	!	!	!	!	!	!	!
8F#\	.	.	8a/	.	.	.	4F#\	e-	4f#\	ae-	4a\	e-	4cc#\	e-	.	.
8F#\J	.	.	8a/J	.	16aa\LL	.	.	.	.	.	.	.	.	.	.	.
.	.	.	.	.	16ff#\JJ	.	.	.	.	.	.	.	.	.	.	.
!	!	!	!LO:LB:g=original	!	!	!	!	!	!	!	!	!	!LO:LB:g=original	!	!	!
=75	=75	=75	=75	=75	=75	=75	=75	=75	=75	=75	=75	=75	=75	=75	=75	=75
*	*	*	*tremolo	*	*	*	*	*	*	*	*	*	*	*	*	*
8F#\L	.	.	8a/L	.	4.cc#\	.	4F#\	-mit-	4f#\	-mit-	4a\	-mit-	4cc#\	-mit-	2F#/	2f#\
8F#\	.	.	8a/	.	.	.	.	.	.	.	.	.	.	.	.	.
8F#\	.	.	8a/	.	.	.	4F#\	-tet	4f#\	-tet	4a\	-tet	4cc#\	-tet	.	.
8F#\J	.	.	8a/J	.	16a\LL	.	.	.	.	.	.	.	.	.	.	.
.	.	.	.	.	16cc#\JJ	.	.	.	.	.	.	.	.	.	.	.
!	!	!	!	!	!	!	!	!	!LO:LB:g=original	!	!	!	!	!	!	!
=76	=76	=76	=76	=76	=76	=76	=76	=76	=76	=76	=76	=76	=76	=76	=76	=76
8F#\L	6_ 4_	.	8b/L	.	16dd\LL	.	4F#\	Ver-	4f#\	Ver-	4b\	Ver-	4dd\	Ver-	2F#/	2f#\
.	.	.	.	.	16cc#\	.	.	.	.	.	.	.	.	.	.	.
8F#\	.	.	8b/	.	16dd\	.	.	.	.	.	.	.	.	.	.	.
.	.	.	.	.	16ee\JJ	.	.	.	.	.	.	.	.	.	.	.
.	.	.	.	.	16qqgg/	.	.	.	.	.	.	.	.	.	.	.
8F#\	.	.	8b/	.	8ff#\L	.	4F#\	-bum	4f#\	-bu(m)	4b\	-bum	4dd\	-bu(m)	.	.
8F#\J	.	.	8b/J	.	16ee\L	.	.	.	.	.	.	.	.	.	.	.
.	.	.	.	.	16dd\JJ	.	.	.	.	.	.	.	.	.	.	.
*	*	*	*Xtremolo	*	*	*	*	*	*	*	*	*	*	*	*	*
!	!	!	!	!	!LO:LB:g=original	!	!LO:LB:g=original	!	!	!	!LO:LB:g=original	!	!	!	!	!
=77	=77	=77	=77	=77	=77	=77	=77	=77	=77	=77	=77	=77	=77	=77	=77	=77
!LO:TX:t=P:problem:mixed beam	!	!	!	!	!	!	!	!	!	!	!	!	!	!	!	!
8F#\L	.	.	8b/L	.	8.dd\L	.	4F#\	Su-	4f#\	Su-	4b\	Su-	4dd\	Su-	4F#/	4f#\
8F#\	5 3	.	8b/	.	.	.	.	.	.	.	.	.	.	.	.	.
.	.	.	.	.	32cc#\LL	.	.	.	.	.	.	.	.	.	.	.
.	.	.	.	.	32dd\JJJ	.	.	.	.	.	.	.	.	.	.	.
8FF#/	.	.	8a/	.	8cc#\L	.	8F#\	-um	8f#\	-um	8a\	-um	8cc#\	-um	8F#/	8f#\
8F#\J	.	.	8a/J	.	8cc#\J	.	8F#\	et	8c#\	et	8a\	et	8cc#\	et	8r	8r
=78	=78	=78	=78	=78	=78	=78	=78	=78	=78	=78	=78	=78	=78	=78	=78	=78
*tremolo	*	*	*	*	*	*	*	*	*	*	*	*	*	*	*	*
8E#X\L	6 5	.	8g#X/L	.	8cc#\L	.	4E#X\	li-	4c#\	li-	4g#X\	li-	4cc#\	li-	0r	0r
8E#\	.	.	8g#/	.	(32gg#X\LL	.	.	.	.	.	.	.	.	.	.	.
.	.	.	.	.	32ff#\	.	.	.	.	.	.	.	.	.	.	.
.	.	.	.	.	32gg#\	.	.	.	.	.	.	.	.	.	.	.
.	.	.	.	.	32aa\JJJ)	.	.	.	.	.	.	.	.	.	.	.
8E#\	.	.	8g#/	.	16gg#\LL	.	4E#\	-que-	4c#\	-que-	4g#\	-que-	4b\	-que-	.	.
.	.	.	.	.	16ee#X\	.	.	.	.	.	.	.	.	.	.	.
8E#\J	.	.	8g#/J	.	16cc#\	.	.	.	.	.	.	.	.	.	.	.
.	.	.	.	.	16b\JJ	.	.	.	.	.	.	.	.	.	.	.
=79	=79	=79	=79	=79	=79	=79	=79	=79	=79	=79	=79	=79	=79	=79	=79	=79
8F#\L	.	.	8a/L	.	8a\L	.	4F#\	-fa-	4c#\	-fa-	4f#\	-fa-	4a\	-fa-	.	.
8F#\	.	.	8a/	.	(32cc#\LL	.	.	.	.	.	.	.	.	.	.	.
.	.	.	.	.	32b\	.	.	.	.	.	.	.	.	.	.	.
.	.	.	.	.	32cc#\	.	.	.	.	.	.	.	.	.	.	.
.	.	.	.	.	32dd\JJJ)	.	.	.	.	.	.	.	.	.	.	.
8F#\	.	.	8a/	.	16cc#\LL	.	8F#\	-ci-	8c#\	-ci-	8f#\	-ci-	8a\	-ci-	.	.
.	.	.	.	.	16ff#\	.	.	.	.	.	.	.	.	.	.	.
8F#\J	.	.	8a/J	.	16aa\	.	8F#\	-et	8c#\	-et	8f#\	-et	8a\	-et	.	.
.	.	.	.	.	16ff#\JJ	.	.	.	.	.	.	.	.	.	.	.
*Xtremolo	*	*	*	*	*	*	*	*	*	*	*	*	*	*	*	*
=80	=80	=80	=80	=80	=80	=80	=80	=80	=80	=80	=80	=80	=80	=80	=80	=80
!LO:TX:t=P:problem:mixed beam	!	!	!	!	!	!	!	!	!	!	!	!	!	!	!	!
8B\L	6	.	8b\L	.	16gg#X\LL	.	4B\	e-	4d\	e-	4g#X\	e-	4b\	e-	.	.
.	.	.	.	.	16dd\	.	.	.	.	.	.	.	.	.	.	.
8B\	.	.	16dd\L	.	16bb\	.	.	.	.	.	.	.	.	.	.	.
.	.	.	16b\JJ	.	16gg#\JJ	.	.	.	.	.	.	.	.	.	.	.
!	!	!	!	!	!	!	!LO:TX:t=P:problem:mixed beam	!	!	!	!	!	!	!	!	!
8c#\	4	.	8a/L	.	8ff#\L	.	8c#\L	.	4c#\	.	8f#\L	.	8a\L	.	.	.
8C#/J	#	.	8g#X/J	.	8ee#X\J	.	8C#/J	.	.	.	8e#X\J	.	8g#X\J	.	.	.
=81	=81	=81	=81	=81	=81	=81	=81	=81	=81	=81	=81	=81	=81	=81	=81	=81
!LO:TX:t=P:problem:mixed beam	!	!	!	!	!	!	!	!	!	!	!	!	!LO:SIC:v:l:s=-a	!	!	!
8F#\L	.	.	8a/L	.	8ff#\L	.	4F#\	-a	4c#\	-a	4f#\	-a	4a\	-as	.	.
8FF#/	.	.	16a/L	.	(32ff#\LL	.	.	.	.	.	.	.	.	.	.	.
.	.	.	.	.	32gg#X\	.	.	.	.	.	.	.	.	.	.	.
.	.	.	16cc#/JJ	.	32aa\	.	.	.	.	.	.	.	.	.	.	.
.	.	.	.	.	32gg#\JJJ)	.	.	.	.	.	.	.	.	.	.	.
8F#\J	.	.	16ff#\LL	.	16ff#\LL	.	4r	.	4r	.	4r	.	4r	.	.	.
.	.	.	16een\	.	16een\	.	.	.	.	.	.	.	.	.	.	.
8r	.	.	16dd\	.	16dd\	.	.	.	.	.	.	.	.	.	.	.
.	.	.	16cc#\JJ	.	16cc#\JJ	.	.	.	.	.	.	.	.	.	.	.
=82	=82	=82	=82	=82	=82	=82	=82	=82	=82	=82	=82	=82	=82	=82	=82	=82
.	.	.	8qqb/	.	.	.	.	.	.	.	.	.	.	.	.	.
8r	.	.	4.a#X/	.	4.a#X/	.	8r	.	8r	.	8r	.	8r	.	8r	8r
!LO:TX:t=P:problem:mixed beam	!	!	!	!	!	!	!	!	!	!	!	!	!	!	!	!
8FF#/L	#_	.	.	.	.	.	4F#\	fla-	4c#\	fla-	4f#\	fla-	4a#X\	fla-	8F#/L	8f#\L
8F#\	.	.	.	.	.	.	.	.	.	.	.	.	.	.	8F#/	8f#\
8En\J	.	.	16g/LL	.	16g/LL	.	8En\	-bit	8c#\	-bit	8f#\	-bit	8a#\	-bit	8F#/J	8f#\J
.	X	.	16a#/JJ	.	16a#/JJ	.	.	.	.	.	.	.	.	.	.	.
!	!	!	!	!	!LO:LB:g=original	!	!	!	!	!	!	!	!	!	!	!
=83	=83	=83	=83	=83	=83	=83	=83	=83	=83	=83	=83	=83	=83	=83	=83	=83
8D/L	6	.	16b/LL	.	16b/LL	.	8D\	Spi-	8d\	Spi-	8f#\	Spi-	8b\	Spi-	4F#/	4f#\
.	.	.	16f#/	.	16f#/	.	.	.	.	.	.	.	.	.	.	.
8AA#X/	6 5	.	16cc#/	.	16cc#/	.	8A#X\	-ri-	8e\	-ri-	8f#\	-ri-	8cc#\	-ri-	.	.
.	.	.	16f#/JJ	.	16f#/JJ	.	.	.	.	.	.	.	.	.	.	.
.	.	.	16qqdd/	.	16qqee/	.	.	.	.	.	.	.	.	.	.	.
8BB/J	.	.	8dd\L	.	8dd\L	.	8B\	-tus	8d\	-tus	8f#\	-tus	8dd\	-tus	8F#/	8f#\
8r	.	.	16cc#\L	.	16cc#\L	.	8r	.	8r	.	8r	.	8r	.	8r	8r
.	.	.	16b\JJ	.	16b\JJ	.	.	.	.	.	.	.	.	.	.	.
!	!	!	!	!	!	!	!	!	!	!	!	!	!LO:LB:g=original	!	!	!
=84	=84	=84	=84	=84	=84	=84	=84	=84	=84	=84	=84	=84	=84	=84	=84	=84
8r	.	.	4.g#X/	.	4.g#X/	.	8r	.	8r	.	8r	.	8r	.	8r	8r
*	*	*	*	*	*	*	*	*ij	*	*	*	*ij	*	*	*	*
!LO:TX:t=P:problem:mixed beam	!	!	!	!	!	!	!	!	!	!	!	!	!	!	!	!
8EE/L	#_	.	.	.	.	.	8E\	Spi-	8B\	Spi-	8e\	Spi-	8g#X\	Spi-	8e\L	8e\L
!	!	!	!	!	!	!	!	!	!LO:LB:g=original	!	!	!	!	!	!	!
8E\	.	.	.	.	.	.	8e\	-ri-	8B\	-ri-	8e\	-ri-	8g#\	-ri-	8e\	8e\
8D\J	.	.	16f#/LL	.	16f#/LL	.	8d\	-tus	8B\	-tus	8e\	-tus	8g#\	-tus	8e\J	8e\J
*	*	*	*	*	*	*	*	*Xij	*	*	*	*Xij	*	*	*	*
.	X	.	16g#/JJ	.	16g#/JJ	.	.	.	.	.	.	.	.	.	.	.
!	!	!	!LO:LB:g=original	!	!	!	!	!	!	!	!LO:LB:g=original	!	!	!	!	!
=85	=85	=85	=85	=85	=85	=85	=85	=85	=85	=85	=85	=85	=85	=85	=85	=85
8C#/L	6	.	16an/LL	.	16a/LL	.	8c#\L	e-	8c#\L	e-	4e\	e-	8an\L	e-	4e\	4e\
.	.	.	16e/	.	16e/	.	.	.	.	.	.	.	.	.	.	.
8GG#X/	6 5	.	16b/	.	16b/	.	8G#X\J	.	8d\J	.	.	.	8b\J	.	.	.
.	.	.	16e/JJ	.	16e/JJ	.	.	.	.	.	.	.	.	.	.	.
.	.	.	16qqdd/	.	16qqdd/	.	.	.	.	.	.	.	.	.	.	.
8AA/J	.	.	8cc#\L	.	8cc#\L	.	8A\	-ius	8c#\	-ius	8e\	-ius	8cc#\	-ius	8A/	8e\
8r	.	.	16b\L	.	16b\L	.	8r	.	8r	.	8r	.	8r	.	8r	8r
.	.	.	16a\JJ	.	16a\JJ	.	.	.	.	.	.	.	.	.	.	.
!LO:LB:g=original	!	!	!	!	!	!	!LO:LB:g=original	!	!	!	!	!	!	!	!LO:LB:g=original	!LO:LB:g=original
=86	=86	=86	=86	=86	=86	=86	=86	=86	=86	=86	=86	=86	=86	=86	=86	=86
!	!	!	!LO:TX:t=P:problem:mixed beam	!	!	!	!	!	!	!	!	!	!	!	!	!
8r	.	.	8dd\L	.	4dd\	.	8r	.	8r	.	8r	.	8r	.	2r	2r
8D\L	3	.	8f#/	.	.	.	8D\	Et	8A\	et	8f#\	et	8dd\	et	.	.
8E\	3	.	8g/	.	16dd\LL	.	8E\	flu-	8A\	flu-	8g\	flu-	8cc#\	flu-	.	.
.	6 3	.	.	.	16cc#\	.	.	.	.	.	.	.	.	.	.	.
8F#\J	n5r 3	.	8a/J	.	16b\	.	8F#\	-ent	8d\	-ent	8a\	-ent	8ccn\	-ent	.	.
.	.	.	.	.	16ccn\JJ	.	.	.	.	.	.	.	.	.	.	.
=87	=87	=87	=87	=87	=87	=87	=87	=87	=87	=87	=87	=87	=87	=87	=87	=87
8G\L	.	.	8g/L	.	16cc#\LL	.	8G\L	a-	8B\L	a-	4g\	a-	8b\L	a-	4r	4r
.	.	.	.	.	16b\	.	.	.	.	.	.	.	.	.	.	.
8E\	6 3	.	8g/	.	16b\	.	8E\J	.	8A\J	.	.	.	8cc#X\J	.	.	.
.	.	.	.	.	16cc#X\JJ	.	.	.	.	.	.	.	.	.	.	.
!	!	!	!	!	!	!	!LO:SIC:v:l:s=-quae	!	!LO:SIC:v:l:s=-quae	!	!LO:SIC:v:l:s=-quae	!	!LO:SIC:v:l:s=-quae	!	!	!
8F#\	6	.	8a/	.	16cc#\LL	.	8F#\	-que	8A\	-que	8f#\	-que	8dd\	-que	8r	8r
.	.	.	.	.	16dd\	.	.	.	.	.	.	.	.	.	.	.
*	*	*	*	*	*	*	*	*ij	*	*	*	*ij	*	*	*	*
8D\J	.	.	8a/J	.	16ee\	.	8D\	et	8A\	et	8a\	et	8ff#\	et	8d\	8f#\
.	.	.	.	.	16ff#\JJ	.	.	.	.	.	.	.	.	.	.	.
=88	=88	=88	=88	=88	=88	=88	=88	=88	=88	=88	=88	=88	=88	=88	=88	=88
!LO:TX:t=P:problem:mixed beam	!	!	!	!	!	!	!	!	!	!	!	!	!	!	!	!
8G\L	6	.	8b/L	.	16ff#\LL	.	8G\	flu-	8B\	flu-	8g\	flu-	8ee\	flu-	4e\	4g\
.	.	.	.	.	16ee\	.	.	.	.	.	.	.	.	.	.	.
8G\	.	.	8g/	.	16gg\	.	8G\	-ent	8B\	-ent	8g\	-ent	8ee\	-ent	.	.
.	.	.	.	.	16ee\JJ	.	.	.	.	.	.	.	.	.	.	.
!	!	!	!	!	!	!	!LO:TX:t=P:problem:mixed beam	!	!	!	!	!	!	!	!	!
8A\	4	.	8f#/	.	8dd\L	.	8A\L	a-	4A\	a-	8f#\L	a-	8dd\L	a-	8d\L	8f#\L
8AA/J	3	.	8e/J	.	8cc#\J	.	8AA/J	.	.	.	8e\J	.	8cc#\J	.	8A\J	8e\J
=89	=89	=89	=89	=89	=89	=89	=89	=89	=89	=89	=89	=89	=89	=89	=89	=89
!LO:TX:a:i:t=Solo	!	!	!	!	!LO:TX:a:i:t=Solo	!	!LO:SIC:v:l:s=-quae	!	!LO:SIC:v:l:s=-quae	!	!LO:SIC:v:l:s=-quae	!	!LO:SIC:v:l:s=-quae	!	!	!
4D\	.	.	4f#/	.	8dd\L	.	4D\	-que	4A\	-que	4f#\	-que	4dd\	-que	4F#/	4d\
*	*	*	*	*	*	*	*	*Xij	*	*	*	*Xij	*	*	*	*
.	.	.	.	.	16ff#\L	.	.	.	.	.	.	.	.	.	.	.
.	.	.	.	.	16ee\JJ	.	.	.	.	.	.	.	.	.	.	.
!	!	!	!LO:TX:a:i:t=Solo	!	!LO:LB:g=original	!	!	!	!	!	!	!	!	!	!	!
8r	.	.	8r	.	8dd\L	.	4r	.	4r	.	4r	.	4r	.	4r	4r
8F#\	6\	.	8a/	.	[<8dd#X\J	.	.	.	.	.	.	.	.	.	.	.
=90	=90	=90	=90	=90	=90	=90	=90	=90	=90	=90	=90	=90	=90	=90	=90	=90
4G\	#5r	.	4b\	.	8dd#\]	.	0r	.	1r	.	1r	.	0r	.	0r	0r
.	6	.	.	.	4ee\	.	.	.	.	.	.	.	.	.	.	.
4A\	5	.	4cc#\	.	.	.	.	.	.	.	.	.	.	.	.	.
.	6	.	.	.	[<8ff#\	.	.	.	.	.	.	.	.	.	.	.
=91	=91	=91	=91	=91	=91	=91	=91	=91	=91	=91	=91	=91	=91	=91	=91	=91
4B\	5	.	4dd\	.	8ff#\]	.	.	.	.	.	.	.	.	.	.	.
.	6	.	.	.	4gg\	.	.	.	.	.	.	.	.	.	.	.
4G\	6	.	4b\	.	.	.	.	.	.	.	.	.	.	.	.	.
.	.	.	.	.	8ee\	.	.	.	.	.	.	.	.	.	.	.
=92	=92	=92	=92	=92	=92	=92	=92	=92	=92	=92	=92	=92	=92	=92	=92	=92
!LO:TX:t=P:problem:mixed beam	!	!	!	!	!	!	!	!	!	!	!	!	!	!	!	!
8A\L	9	.	8.f#/L	.	8.dd\L	.	.	.	2r	.	2r	.	.	.	.	.
8AA/	3_	.	.	.	.	.	.	.	.	.	.	.	.	.	.	.
.	.	.	32d/LL	.	32cc#\LL	.	.	.	.	.	.	.	.	.	.	.
.	.	.	32e/JJJ	.	32dd\JJJ	.	.	.	.	.	.	.	.	.	.	.
8A\J	X	.	8e/	.	8cc#\	.	.	.	.	.	.	.	.	.	.	.
8r	.	.	8r	.	8r	.	.	.	.	.	.	.	.	.	.	.
=93	=93	=93	=93	=93	=93	=93	=93	=93	=93	=93	=93	=93	=93	=93	=93	=93
!LO:TX:t=P:problem:mixed beam	!	!	!LO:DY:t=p.	!	!LO:DY:t=p.	!	!	!	!LO:TX:a:i:rj:t=Solo	!	!LO:TX:a:i:t=Solo	!	!	!	!	!
8D\L	.	p	4.dd\	p	4.ff#\	p	.	.	4.d\	qui	4.f#\	qui	.	.	.	.
8F#\	.	.	.	.	.	.	.	.	.	.	.	.	.	.	.	.
8A\	4	.	.	.	.	.	.	.	.	.	.	.	.	.	.	.
8AA/J	3	.	8cc#\	.	8ee\	.	.	.	8c#\	an-	8e\	an-	.	.	.	.
=94	=94	=94	=94	=94	=94	=94	=94	=94	=94	=94	=94	=94	=94	=94	=94	=94
4D\	.	.	16dd\LL	.	(16ff#\LL	.	0r	.	16d\LL	-nun-	16f#\LL	-nun-	0r	.	0r	0r
.	.	.	16cc#\	.	16ee\	.	.	.	16c#\JJ	.	16e\JJ	.	.	.	.	.
.	.	.	16dd\	.	16ff#\	.	.	.	16d\LL	-ti-	16e\LL	-ti-	.	.	.	.
.	.	.	16ee\JJ	.	16gg\JJ)	.	.	.	16e\JJ	.	16g\JJ	.	.	.	.	.
!	!	!	!	!	!	!	!	!	!LO:LB:g=original	!	!	!	!	!	!	!
8r	.	.	8ff#\L	.	8aa\L	.	.	.	8f#\	-at	8a\	-at	.	.	.	.
8F#\	6	.	8dd\J	.	8ff#\J	.	.	.	8d\	Ver-	8f#\	Ver-	.	.	.	.
!	!	!	!LO:LB:g=original	!	!	!	!	!	!	!	!LO:LB:g=original	!	!	!	!	!
=95	=95	=95	=95	=95	=95	=95	=95	=95	=95	=95	=95	=95	=95	=95	=95	=95
4G\	6	.	8ee\	.	8gg\	.	.	.	8e\	.	8g\	.	.	.	.	.
.	5	.	4dd\	.	4ff#\	.	.	.	4d\	.	4f#\	.	.	.	.	.
4A\	4	.	.	.	.	.	.	.	.	.	.	.	.	.	.	.
.	3	.	8cc#\	.	8ee\	.	.	.	8c#\	-bum	8e\	-bum	.	.	.	.
=96	=96	=96	=96	=96	=96	=96	=96	=96	=96	=96	=96	=96	=96	=96	=96	=96
*	*	*	*	*	*	*	*	*	*	*ij	*	*ij	*	*	*	*
4D\	.	.	16dd\LL	.	16ff#\LL	.	.	.	16d\LL	Ver-	16f#\LL	Ver-	.	.	.	.
.	.	.	16cc#\	.	16ee\	.	.	.	16c#\JJ	.	16e\JJ	.	.	.	.	.
.	.	.	16dd\	.	16ff#\	.	.	.	16d\LL	-bum	16f#\LL	-bum	.	.	.	.
*	*	*	*	*	*	*	*	*	*	*Xij	*	*Xij	*	*	*	*
.	.	.	16ee\JJ	.	16gg\JJ	.	.	.	16e\JJ	.	16g\JJ	.	.	.	.	.
8r	.	.	8ff#\L	.	8aa\L	.	.	.	8f#\	Su-	8a\	Su-	.	.	.	.
8F#\	6	.	8dd\J	.	8ff#\J	.	.	.	8d\	-um	8f#\	-um	.	.	.	.
!	!	!	!	!	!LO:LB:g=original	!	!	!	!	!	!	!	!	!	!	!
=97	=97	=97	=97	=97	=97	=97	=97	=97	=97	=97	=97	=97	=97	=97	=97	=97
4G\	6	.	8ee\	.	8gg\	.	.	.	8e\	Ja-	8g\	Ja-	.	.	.	.
.	5	.	4dd\	.	4ff#\	.	.	.	4d\	.	4f#\	.	.	.	.	.
4A\	4	.	.	.	.	.	.	.	.	.	.	.	.	.	.	.
.	3	.	8cc#\	.	8ee\	.	.	.	8c#\	.	8e\	.	.	.	.	.
!LO:LB:g=original	!	!	!	!	!	!	!	!	!	!	!	!	!	!	!	!
=98	=98	=98	=98	=98	=98	=98	=98	=98	=98	=98	=98	=98	=98	=98	=98	=98
8D\L	.	.	4dd\	.	4ff#\	.	0r	.	4d\	-cob	4f#\	-cob	0r	.	0r	0r
8d\	.	.	.	.	.	.	.	.	.	.	.	.	.	.	.	.
8D\J	.	.	8r	.	8r	.	.	.	8r	.	8r	.	.	.	.	.
8r	.	.	8ff#\	.	8aa\	.	.	.	8f#\	Ius-	8a\	Iuſ-	.	.	.	.
=99	=99	=99	=99	=99	=99	=99	=99	=99	=99	=99	=99	=99	=99	=99	=99	=99
8D\L	.	.	4.ff#\	.	4.aa\	.	.	.	4.f#\	-ti-	4.a\	-ti-	.	.	.	.
8d\	.	.	.	.	.	.	.	.	.	.	.	.	.	.	.	.
8D\J	.	.	.	.	.	.	.	.	.	.	.	.	.	.	.	.
8r	.	.	16ee\LL	.	16gg\LL	.	.	.	16e\LL	-ti-	16g\LL	-ti-	.	.	.	.
.	.	.	16ff#\JJ	.	16aa\JJ	.	.	.	16f#\JJ	.	16a\JJ	.	.	.	.	.
=100	=100	=100	=100	=100	=100	=100	=100	=100	=100	=100	=100	=100	=100	=100	=100	=100
4.G\	6	.	8gg\L	.	8bb\L	.	.	.	8g\L	-as	8b\L	-as	.	.	.	.
.	.	.	8ff#\	.	8aa\	.	.	.	8f#\J	.	8a\J	.	.	.	.	.
.	.	.	8ee\	.	8gg\	.	.	.	8e\	et	8g\	et	.	.	.	.
8G#X\	5	.	8dd\J	.	8ff#\J	.	.	.	8e\	Iu-	8f#\	Iu-	.	.	.	.
=101	=101	=101	=101	=101	=101	=101	=101	=101	=101	=101	=101	=101	=101	=101	=101	=101
4A\	4	.	8.dd\L	.	8.ff#\L	.	.	.	8.d\	-di-	8.f#\	-di-	.	.	.	.
.	.	.	32cc#\LL	.	32ee\LL	.	.	.	16d\	-ci-	16f#\	-ci-	.	.	.	.
.	.	.	32dd\JJJ	.	32ff#\JJJ	.	.	.	.	.	.	.	.	.	.	.
4AA/	3	.	8cc#\L	.	8ee\L	.	.	.	8c#\	-a	8e\	-a	.	.	.	.
.	.	.	8a\J	.	8a\J	.	.	.	8c#\	et	8e\	et	.	.	.	.
!	!	!	!	!	!	!	!	!	!LO:LB:g=original	!	!LO:LB:g=original	!	!	!	!	!
=102	=102	=102	=102	=102	=102	=102	=102	=102	=102	=102	=102	=102	=102	=102	=102	=102
8r	.	.	4.ee\	.	4.gg\	.	0r	.	4.e\	Iu	(4.g\	Iu	0r	.	0r	0r
8c#\L	6_ 5_	.	.	.	.	.	.	.	.	.	.	.	.	.	.	.
8c#\	.	.	.	.	.	.	.	.	.	.	.	.	.	.	.	.
8c#\J	.	.	16dd\LL	.	16ff#\LL	.	.	.	16d\LL	.	16f#\LL	.	.	.	.	.
.	X X	.	16ee\JJ	.	16gg\JJ	.	.	.	16e\JJ	.	16g\JJ)	.	.	.	.	.
=103	=103	=103	=103	=103	=103	=103	=103	=103	=103	=103	=103	=103	=103	=103	=103	=103
4d\	.	.	8.ff#\L	.	8.aa\L	.	.	.	8.f#\	di-	8.a\	di-	.	.	.	.
.	.	.	16ee\Jk	.	16gg\Jk	.	.	.	16e\	-ci-	16g\	-ci-	.	.	.	.
4D\	.	.	8dd\L	.	8ff#\L	.	.	.	8d\	-a	8f#\	-a	.	.	.	.
.	.	.	8gg\J	.	8aa\J	.	.	.	8f#\	Su-	8a\	Su-	.	.	.	.
=104	=104	=104	=104	=104	=104	=104	=104	=104	=104	=104	=104	=104	=104	=104	=104	=104
8G\L	.	.	4gg\	.	4bb\	.	.	.	4g\	.	4b\	.	.	.	.	.
8E\	.	.	.	.	.	.	.	.	.	.	.	.	.	.	.	.
8F#\	.	.	8ff#\L	.	8aa\L	.	.	.	8f#\L	-a	8a\L	-a	.	.	.	.
8G\J	6	.	8ee\J	.	8gg\J	.	.	.	8e\J	.	8g\J	.	.	.	.	.
!	!	!	!LO:LB:g=original	!	!	!	!	!	!	!	!	!	!	!	!	!
=105	=105	=105	=105	=105	=105	=105	=105	=105	=105	=105	=105	=105	=105	=105	=105	=105
!LO:TX:t=P:problem:mixed beam	!	!	!	!	!	!	!	!	!	!	!	!	!	!	!	!
8A\L	4	.	4dd\	.	4ff#\	.	.	.	4d\	I-	4f#\	Is-	.	.	.	.
8A\	.	.	.	.	.	.	.	.	.	.	.	.	.	.	.	.
8AA/	3	.	4cc#\	.	4ee\	.	.	.	4c#\	-sra-	4e\	-ra-	.	.	.	.
8AA/J	.	.	.	.	.	.	.	.	.	.	.	.	.	.	.	.
!	!	!	!	!	!LO:LB:g=original	!	!	!	!	!	!	!	!	!	!	!
=106	=106	=106	=106	=106	=106	=106	=106	=106	=106	=106	=106	=106	=106	=106	=106	=106
!	!	!	!	!	!LO:TX:a:i:t=Solo	!	!	!	!	!	!	!	!	!	!	!
4D\	.	.	4dd\	.	(8.dd\L	.	0r	.	4d\	-el	4f#\	-el	0r	.	1r	1r
.	.	.	.	.	16ff#\Jk)	.	.	.	.	.	.	.	.	.	.	.
4r	.	.	4r	.	8aa|\L	.	.	.	4r	.	4r	.	.	.	.	.
.	.	.	.	.	8aa|\J	.	.	.	.	.	.	.	.	.	.	.
=107	=107	=107	=107	=107	=107	=107	=107	=107	=107	=107	=107	=107	=107	=107	=107	=107
8r	.	.	8r	.	4aa\	.	.	.	1r	.	1r	.	.	.	.	.
!	!	!	!LO:TX:a:i:t=Solo	!	!	!	!	!	!	!	!	!	!	!	!	!
16D\LL	.	.	16f#/LL	.	.	.	.	.	.	.	.	.	.	.	.	.
16C#\JJ	.	.	16g/JJ	.	.	.	.	.	.	.	.	.	.	.	.	.
8D\L	.	.	8a/L	.	(16gg\LL	.	.	.	.	.	.	.	.	.	.	.
.	.	.	.	.	16ff#\)	.	.	.	.	.	.	.	.	.	.	.
8F#\J	6	.	8a/J	.	(16ee\	.	.	.	.	.	.	.	.	.	.	.
.	.	.	.	.	16dd\JJ)	.	.	.	.	.	.	.	.	.	.	.
=108	=108	=108	=108	=108	=108	=108	=108	=108	=108	=108	=108	=108	=108	=108	=108	=108
8A\L	3_	.	8.e/L	.	8.cc#\L	.	.	.	.	.	.	.	.	.	4r	4r
8G\	.	.	.	.	.	.	.	.	.	.	.	.	.	.	.	.
.	.	.	32d/LL	.	32b\LL	.	.	.	.	.	.	.	.	.	.	.
.	.	.	32e/JJJ	.	32cc#\JJJ	.	.	.	.	.	.	.	.	.	.	.
8F#\	6	.	16f#/LL	.	16dd\LL	.	.	.	.	.	.	.	.	.	8r	8r
.	.	.	16g/	.	16ee\	.	.	.	.	.	.	.	.	.	.	.
8D\J	.	.	16a/	.	16ff#\	.	.	.	.	.	.	.	.	.	8d\	8f#\
.	.	.	16f#/JJ	.	16dd\JJ	.	.	.	.	.	.	.	.	.	.	.
=109	=109	=109	=109	=109	=109	=109	=109	=109	=109	=109	=109	=109	=109	=109	=109	=109
!LO:TX:t=P:problem:mixed beam	!	!	!	!	!	!	!	!	!	!	!	!	!	!	!	!
8G\L	6_	.	8g/L	.	16ee\LL	.	.	.	2r	.	2r	.	.	.	4e\	4g\
.	.	.	.	.	16gg\	.	.	.	.	.	.	.	.	.	.	.
8G\	.	.	16b/L	.	16b\	.	.	.	.	.	.	.	.	.	.	.
.	.	.	16g/JJ	.	16ee\JJ	.	.	.	.	.	.	.	.	.	.	.
8A\	4	.	16g/LL	.	16ee\LL	.	.	.	.	.	.	.	.	.	8d\L	8f#\L
.	.	.	16f#/	.	16dd\	.	.	.	.	.	.	.	.	.	.	.
8AA/J	3	.	16f#/	.	16dd\	.	.	.	.	.	.	.	.	.	8A\J	8e\J
.	.	.	16e/JJ	.	16cc#\JJ	.	.	.	.	.	.	.	.	.	.	.
!LO:LB:g=original	!	!	!	!	!	!	!	!	!	!	!	!	!LO:LB:g=original	!	!	!
=110	=110	=110	=110	=110	=110	=110	=110	=110	=110	=110	=110	=110	=110	=110	=110	=110
!	!	!	!LO:TX:a:t=P:problem:mixed beam	!	!	!LO:DY:t=for	!	!	!	!	!	!	!	!	!	!
8D\L	.	.	8f#/L	.	8dd\L	f	4D\	Non	4d\	non	4a\	non	4ff#\	Non	4F#/	2d\
!	!	!	!	!LO:DY:t=for.	!	!	!	!	!	!	!	!	!	!	!	!
8D\	.	.	8dd\	f	32ff#\LL	.	.	.	.	.	.	.	.	.	.	.
.	.	.	.	.	32ee\	.	.	.	.	.	.	.	.	.	.	.
.	.	.	.	.	32ff#\	.	.	.	.	.	.	.	.	.	.	.
.	.	.	.	.	32gg\JJJ	.	.	.	.	.	.	.	.	.	.	.
8D\	.	.	8ff#\	.	16aa\LL	.	8D\	fe-	8d\	fe-	8a\	fe-	8ff#\	fe-	4D/	.
.	.	.	.	.	16bb\	.	.	.	.	.	.	.	.	.	.	.
8D\J	.	.	8ff#\J	.	16ccc#\	.	8D\	-cit	8d\	-cit	8a\	-cit	8ff#\	-cit	.	.
.	.	.	.	.	16ddd\JJ	.	.	.	.	.	.	.	.	.	.	.
=111	=111	=111	=111	=111	=111	=111	=111	=111	=111	=111	=111	=111	=111	=111	=111	=111
8D\L	6 4	.	8gg\L	.	8.bb\L	.	4D\	ta-	4d\	ta-	4b\	ta-	4gg\	ta-	2D/	2d\
8D\	.	.	8gg\	.	.	.	.	.	.	.	.	.	.	.	.	.
.	.	.	.	.	32aa\LL	.	.	.	.	.	.	.	.	.	.	.
.	.	.	.	.	32bb\JJJ	.	.	.	.	.	.	.	.	.	.	.
8D\	5 3	.	8ff#\	.	16aa\LL	.	8D\	-li-	8d\	-li-	8a\	-li-	8ff#\	-li-	.	.
.	.	.	.	.	16bb\	.	.	.	.	.	.	.	.	.	.	.
8D\J	.	.	8ff#\J	.	16ccc#\	.	8D\	-ter	8A\	-ter	8a\	-ter	8ff#\	-ter	.	.
.	.	.	.	.	16ddd\JJ	.	.	.	.	.	.	.	.	.	.	.
!	!	!	!	!	!LO:LB:g=original	!	!	!	!	!	!	!	!	!	!	!
=112	=112	=112	=112	=112	=112	=112	=112	=112	=112	=112	=112	=112	=112	=112	=112	=112
*tremolo	*	*	*	*	*	*	*	*	*	*	*	*	*	*	*	*
8C#/L	6 5	.	8ee\L	.	8.aa\L	.	8C#/	o-	8A\	o-	8a\	o-	8ee\	o-	4A/	4e\
8C#/	.	.	8ee\	.	.	.	8C#/	-mni	8A\	-mni	8g\	-mni	8ee\	-mni	.	.
.	.	.	.	.	16gg\Jk	.	.	.	.	.	.	.	.	.	.	.
!	!	!	!	!	!	!	!	!	!	!	!LO:LB:g=original	!	!	!	!	!
8C#/	.	.	8ee\	.	16ee\LL	.	8C#/	na-	8A\	na-	8g\	na-	8ee\	na-	4e\	4g\
.	.	.	.	.	16ff#\	.	.	.	.	.	.	.	.	.	.	.
8C#/J	.	.	8ee\J	.	16gg\	.	8C#/	-ti-	8A\	-ti-	8g\	-ti-	8ee\	-ti-	.	.
.	.	.	.	.	16aa\JJ	.	.	.	.	.	.	.	.	.	.	.
*Xtremolo	*	*	*	*	*	*	*	*	*	*	*	*	*	*	*	*
!	!	!	!	!	!	!	!	!	!LO:LB:g=original	!	!	!	!	!	!	!
=113	=113	=113	=113	=113	=113	=113	=113	=113	=113	=113	=113	=113	=113	=113	=113	=113
!LO:TX:t=P:problem:mixed beam	!	!	!	!	!	!	!	!	!	!	!	!	!	!	!	!
8D\L	4	.	8.ee\L	.	(8.ggT\L	.	4D\	-o-	4A\	-o-	4g\	-o-	4ee\	-o-	4e\	4g\
8D\	3	.	.	.	.	.	.	.	.	.	.	.	.	.	.	.
.	.	.	32dd\LL	.	32ff#\LL	.	.	.	.	.	.	.	.	.	.	.
.	.	.	32ee\JJJ	.	32gg\JJJ)	.	.	.	.	.	.	.	.	.	.	.
8DD/J	.	.	8dd\	.	8ff#\	.	8D\	-ni	8A\	-ni	8f#\	-ni	8dd\	-ni	8d\	8f#\
!	!	!	!	!	!LO:TX:a:t=Solo	!	!	!	!	!	!	!	!	!	!	!
8r	.	.	8r	.	8r	.	8r	.	8r	.	8r	.	8r	.	8r	8r
!	!	!	!	!	!	!	!LO:LB:g=original	!	!	!	!	!	!	!	!	!
=114	=114	=114	=114	=114	=114	=114	=114	=114	=114	=114	=114	=114	=114	=114	=114	=114
!	!	!	!LO:TX:a:i:t=Solo	!	!	!	!	!	!	!	!	!	!	!	!	!
0r	.	.	2B-X/	.	8.ddd\L	.	1r	.	1r	.	1r	.	1r	.	0r	0r
.	.	.	.	.	16bb\Jk	.	.	.	.	.	.	.	.	.	.	.
.	.	.	.	.	8gg#X|\L	.	.	.	.	.	.	.	.	.	.	.
.	.	.	.	.	8gg#|\J	.	.	.	.	.	.	.	.	.	.	.
!	!	!	!LO:LB:g=original	!	!	!	!	!	!	!	!	!	!	!	!	!
=115	=115	=115	=115	=115	=115	=115	=115	=115	=115	=115	=115	=115	=115	=115	=115	=115
.	.	.	2A/	.	(8.aa\L	.	.	.	.	.	.	.	.	.	.	.
.	.	.	.	.	16ccc#\Jk)	.	.	.	.	.	.	.	.	.	.	.
.	.	.	.	.	8ee|\L	.	.	.	.	.	.	.	.	.	.	.
.	.	.	.	.	8ee|\J	.	.	.	.	.	.	.	.	.	.	.
=116	=116	=116	=116	=116	=116	=116	=116	=116	=116	=116	=116	=116	=116	=116	=116	=116
!	!	!	!	!	!	!	!LO:TX:a:i:rj:t=Solo	!	!LO:TX:a:i:t=Solo	!	!LO:TX:a:i:rj:t=Solo	!	!LO:TX:a:i:t=Solo	!	!	!
.	.	.	2B-X/	.	(8.ddd\L	.	8B-X\	et	8B-X\	et	8b-X\	et	8b-X\	et	.	.
.	.	.	.	.	.	.	8B-\	Iu	8B-\	Iu	8b-\	Iu	8b-\	iu	.	.
.	.	.	.	.	16bb-X\Jk)	.	.	.	.	.	.	.	.	.	.	.
.	.	.	.	.	8gg#X|\L	.	8.B-\	di-	8.B-\	di-	8.b-\	di-	8.b-\	di-	.	.
.	.	.	.	.	8gg#|\J	.	.	.	.	.	.	.	.	.	.	.
.	.	.	.	.	.	.	16B-\	-ci-	16B-\	-ci-	16b-\	-ci-	16b-\	-ci-	.	.
=117	=117	=117	=117	=117	=117	=117	=117	=117	=117	=117	=117	=117	=117	=117	=117	=117
!	!	!	!	!	!	!	!	!	!	!	!LO:SIC:v:l:s=-a	!	!	!	!	!
.	.	.	2A/	.	(8.aa\L	.	4A\	-a	4A\	-a	4a\	-o	4a\	-a	.	.
.	.	.	.	.	16ccc#\Jk)	.	.	.	.	.	.	.	.	.	.	.
.	.	.	.	.	8ee\	.	4r	.	4r	.	4r	.	4r	.	.	.
.	.	.	.	.	8r	.	.	.	.	.	.	.	.	.	.	.
=118	=118	=118	=118	=118	=118	=118	=118	=118	=118	=118	=118	=118	=118	=118	=118	=118
0r	.	.	2B-X/	.	(8.ddd\L	.	1r	.	1r	.	1r	.	1r	.	0r	0r
.	.	.	.	.	16bb-X\Jk)	.	.	.	.	.	.	.	.	.	.	.
.	.	.	.	.	8gg#X|\L	.	.	.	.	.	.	.	.	.	.	.
.	.	.	.	.	8gg#|\J	.	.	.	.	.	.	.	.	.	.	.
!	!	!	!	!	!LO:LB:g=original	!	!	!	!	!	!	!	!	!	!	!
=119	=119	=119	=119	=119	=119	=119	=119	=119	=119	=119	=119	=119	=119	=119	=119	=119
.	.	.	2A/	.	(8.aa\L	.	.	.	.	.	.	.	.	.	.	.
.	.	.	.	.	16ccc#\Jk)	.	.	.	.	.	.	.	.	.	.	.
.	.	.	.	.	8ee|\L	.	.	.	.	.	.	.	.	.	.	.
.	.	.	.	.	8ee|\J	.	.	.	.	.	.	.	.	.	.	.
!	!	!	!	!	!	!	!	!	!	!	!	!	!LO:LB:g=original	!	!	!
=120	=120	=120	=120	=120	=120	=120	=120	=120	=120	=120	=120	=120	=120	=120	=120	=120
*	*	*	*	*	*	*	*2\right	*	*2\right	*	*	*	*	*	*	*
.	.	.	2B-X/	.	(8.ddd\L	.	2B-X\	Su-	2B-X\	Su-	2b-X\	Su-	2b-X\	Su-	.	.
.	.	.	.	.	16bb-X\Jk)	.	.	.	.	.	.	.	.	.	.	.
.	.	.	.	.	8gg#X|\L	.	.	.	.	.	.	.	.	.	.	.
.	.	.	.	.	8gg#|\J	.	.	.	.	.	.	.	.	.	.	.
=121	=121	=121	=121	=121	=121	=121	=121	=121	=121	=121	=121	=121	=121	=121	=121	=121
.	.	.	2A/	.	(8.aa\L	.	4A\	-a	4A\	-a	4a\	-a	4a\	-a	.	.
.	.	.	.	.	16ccc#\Jk)	.	.	.	.	.	.	.	.	.	.	.
.	.	.	.	.	8ee|\	.	4r	.	4r	.	4r	.	4r	.	.	.
.	.	.	.	.	8r	.	.	.	.	.	.	.	.	.	.	.
=122	=122	=122	=122	=122	=122	=122	=122	=122	=122	=122	=122	=122	=122	=122	=122	=122
!	!	!	!	!LO:DY:t=for	!	!LO:DY:t=for	!	!	!	!	!	!	!	!	!	!
8C#\L	3	.	8e/L	f	8ee\L	f	4r	.	4r	.	4r	.	4r	.	0r	0r
*	*	*	*tuplet	*	*tuplet	*	*	*	*	*	*	*	*	*	*	*
!	!	!	!LO:TUP:b:problem:klamra łukowa	!	!LO:TUP:a:problem:klamra łukowa	!	!	!	!	!	!	!	!	!	!	!
8D\	3	.	24f#/L	.	24ff#\L	.	.	.	.	.	.	.	.	.	.	.
.	.	.	24e/	.	24ee\	.	.	.	.	.	.	.	.	.	.	.
.	.	.	24f#/JJ	.	24ff#\JJ	.	.	.	.	.	.	.	.	.	.	.
8E\J	3	.	8g/	.	8gg\	.	8r	.	8r	.	8r	.	8r	.	.	.
8r	.	.	8r	.	8r	.	8c#\	non	8A\	non	8g\	non	8ee\	non	.	.
=123	=123	=123	=123	=123	=123	=123	=123	=123	=123	=123	=123	=123	=123	=123	=123	=123
8r	.	.	8f#/L	.	8ff#\L	.	4r	.	4r	.	4r	.	4r	.	.	.
!	!	!	!LO:TUP:b:problem:klamra łukowa	!	!LO:TUP:a:problem:klamra łukowa	!	!	!	!	!	!	!	!	!	!	!
8D\L	3	.	24g/L	.	24gg\L	.	.	.	.	.	.	.	.	.	.	.
.	.	.	24f#/	.	24ff#\	.	.	.	.	.	.	.	.	.	.	.
.	.	.	24g/JJ	.	24gg\JJ	.	.	.	.	.	.	.	.	.	.	.
8E\	3	.	8a/	.	8aa\	.	8r	.	8r	.	8r	.	8r	.	.	.
*	*	*	*	*	*	*	*	*ij	*	*ij	*	*ij	*	*ij	*	*
8F#\J	3	.	8r	.	8r	.	8d\	non	8A\	non	8f#\	non	8dd\	non	.	.
*	*	*	*	*	*	*	*	*Xij	*	*Xij	*	*Xij	*	*Xij	*	*
!	!	!	!	!	!	!	!	!	!	!	!LO:LB:g=original	!	!	!	!	!
=124	=124	=124	=124	=124	=124	=124	=124	=124	=124	=124	=124	=124	=124	=124	=124	=124
8G\L	6	.	(16b/LL	.	(16bb\LL	.	8G\L	ma-	8B\L	ma-	8b\L	ma-	2ee\	ma-	.	.
.	.	.	16g/)	.	16gg\)	.	.	.	.	.	.	.	.	.	.	.
8A\	.	.	(16f#/	.	(16ff#\	.	8A\	.	8c#\	.	8a\	.	.	.	.	.
.	.	.	16e/JJ)	.	16ee\JJ)	.	.	.	.	.	.	.	.	.	.	.
8B\	.	.	(16e/LL	.	(16ee\LL	.	8B\	.	8B\	.	8g\	.	.	.	.	.
.	.	.	16d#X/)	.	16dd#X\)	.	.	.	.	.	.	.	.	.	.	.
8A\J	.	.	(16f#/	.	(16ff#\	.	8A\J	.	8c#\J	.	8a\J	.	.	.	.	.
.	.	.	16e/JJ)	.	16ee\JJ)	.	.	.	.	.	.	.	.	.	.	.
=125	=125	=125	=125	=125	=125	=125	=125	=125	=125	=125	=125	=125	=125	=125	=125	=125
8G\L	.	.	(16d#X/LL	.	(16dd#X\LL	.	8G\L	-ni-	8B\L	-ni-	8b\L	-ni-	4ee\	-ni-	.	.
.	.	.	16e/)	.	16ee\)	.	.	.	.	.	.	.	.	.	.	.
8A\	.	.	(16f#/	.	(16ff#\	.	8A\J	.	8c#\J	.	8a\J	.	.	.	.	.
.	.	.	16e/JJ)	.	16ee\JJ)	.	.	.	.	.	.	.	.	.	.	.
!	!	!	!	!	!LO:LB:g=original	!	!	!	!	!	!	!	!	!	!	!
8B\	.	.	(16e/LL	.	(16ee\LL	.	8B\L	-fes-	8B\L	-fes-	8g\L	-fes-	4ee\	-fe-	.	.
.	.	.	16d#/)	.	16dd#X\)	.	.	.	.	.	.	.	.	.	.	.
8A\J	.	.	(16f#/	.	(16ff#\	.	8A\J	.	8c#\J	.	8a\J	.	.	.	.	.
.	.	.	16e/JJ)	.	16ee\JJ)	.	.	.	.	.	.	.	.	.	.	.
!	!	!	!	!	!	!	!	!	!LO:LB:g=original	!	!	!	!	!	!	!
=126	=126	=126	=126	=126	=126	=126	=126	=126	=126	=126	=126	=126	=126	=126	=126	=126
8G\L	.	.	(16e/LL	.	(16ee\LL	.	8G\L	-ta-	8B\L	-ta-	8b\L	-ta-	4dd\	-sta-	8r	8r
.	.	.	16dn/)	.	16dd#X\)	.	.	.	.	.	.	.	.	.	.	.
8F#\	.	.	(16c#/	.	(16cc#\	.	8F#\J	.	8A\J	.	8a\J	.	.	.	8f#\L	8f#\L
.	.	.	16d/JJ)	.	16dd#\JJ)	.	.	.	.	.	.	.	.	.	.	.
!	!	!	!LO:LB:g=original	!	!	!	!	!	!	!	!	!	!	!	!	!
8G\	6	.	(16f#/LL	.	(16ff#\LL	.	8G\L	-vit	4B\	-vit	8g\L	-vit	8ee\L	-vit	8g\	8g\
.	.	.	16e/)	.	16ee\)	.	.	.	.	.	.	.	.	.	.	.
8G#X\J	5	.	(16e/	.	(16ee\	.	8G#X\J	.	.	.	8f#\J	.	8dd\J	.	8f#\J	8f#\J
.	.	.	16d/JJ)	.	16dd#\JJ)	.	.	.	.	.	.	.	.	.	.	.
!	!	!	!	!	!	!	!LO:LB:g=original	!	!	!	!	!	!	!	!	!
=127	=127	=127	=127	=127	=127	=127	=127	=127	=127	=127	=127	=127	=127	=127	=127	=127
8A\L	.	.	8e/L	.	8cc#\	.	8A\L	e-	8A\	e-	8e\L	e-	8cc#\	e-	8A/	8e\L
8B\	.	.	8f#/J	.	4dd\	.	8B\	.	4B\	.	8f#\J	.	4dd\	.	4d\	8f#\J
8Gn\	6 5	.	4e/	.	.	.	8Gn\	.	.	.	4e\	.	.	.	.	4e\
8A\J	.	.	.	.	8cc#\	.	8A\J	.	8A\	.	.	.	8cc#\	.	8A/	.
!	!	!	!	!	!	!	!	!	!	!	!	!	!	!	!LO:LB:g=original	!
=128	=128	=128	=128	=128	=128	=128	=128	=128	=128	=128	=128	=128	=128	=128	=128	=128
!	!	!	!LO:TX:a:i:t=Solo	!	!LO:TX:a:i:t=Solo	!	!	!	!	!	!	!	!	!	!	!
8d\L	.	.	8f#/	.	8dd\	.	4D\	-is	4A\	-is	4f#\	-is	4dd\	-is	4F#/	4d\
8D\J	.	.	16r	.	16r	.	.	.	.	.	.	.	.	.	.	.
.	.	.	16f#/	.	16ff#\	.	.	.	.	.	.	.	.	.	.	.
!LO:TX:a:i:t=Solo	!	!	!	!	!	!	!	!	!	!	!	!	!	!	!	!
8r	.	.	16b|/LL	.	(16bb\LL	.	4r	.	4r	.	4r	.	4r	.	4r	4r
.	.	.	16a|/	.	16aa\)	.	.	.	.	.	.	.	.	.	.	.
8D\	.	.	16g|/	.	(16gg\	.	.	.	.	.	.	.	.	.	.	.
.	.	.	16f#|/JJ	.	16ff#\JJ)	.	.	.	.	.	.	.	.	.	.	.
!LO:LB:g=original	!	!	!	!	!	!	!	!	!	!	!	!	!	!	!	!LO:PB:g=original
=129	=129	=129	=129	=129	=129	=129	=129	=129	=129	=129	=129	=129	=129	=129	=129	=129
8E\L	3_	.	(16f#/LL	.	(16ff#\LL	.	0r	.	0r	.	1r	.	1r	.	1r	1r
.	.	.	16g/JJ)	.	16gg\JJ)	.	.	.	.	.	.	.	.	.	.	.
8E\J	.	.	16r	.	16r	.	.	.	.	.	.	.	.	.	.	.
.	X	.	16g/	.	16gg|\	.	.	.	.	.	.	.	.	.	.	.
8r	.	.	(16a/LL	.	(16aa\LL	.	.	.	.	.	.	.	.	.	.	.
.	.	.	16g/)	.	16gg\)	.	.	.	.	.	.	.	.	.	.	.
8C#/	.	.	(16f#/	.	(16ff#\	.	.	.	.	.	.	.	.	.	.	.
.	.	.	16e/JJ)	.	16ee\JJ)	.	.	.	.	.	.	.	.	.	.	.
=130	=130	=130	=130	=130	=130	=130	=130	=130	=130	=130	=130	=130	=130	=130	=130	=130
8D\L	.	.	(16e/LL	.	(16ee\LL	.	.	.	.	.	.	.	.	.	.	.
.	.	.	16f#/JJ)	.	16ff#\JJ)	.	.	.	.	.	.	.	.	.	.	.
8D\J	.	.	16r	.	16r	.	.	.	.	.	.	.	.	.	.	.
.	.	.	16f#/	.	16ff#|\	.	.	.	.	.	.	.	.	.	.	.
8r	.	.	(16g/LL	.	(16gg\LL	.	.	.	.	.	.	.	.	.	.	.
.	.	.	16f#/)	.	16ff#\)	.	.	.	.	.	.	.	.	.	.	.
8B\	.	.	(16e/	.	(16ee\	.	.	.	.	.	.	.	.	.	.	.
.	.	.	16d/JJ)	.	16dd\JJ)	.	.	.	.	.	.	.	.	.	.	.
!	!	!	!	!	!LO:LB:g=original	!	!	!	!	!	!	!	!	!	!	!
=131	=131	=131	=131	=131	=131	=131	=131	=131	=131	=131	=131	=131	=131	=131	=131	=131
!LO:TX:t=P:problem:mixed beam	!	!	!	!	!	!	!	!	!	!	!	!	!	!	!	!
8G\L	6_	.	8.e/L	.	(16ee\LL	.	.	.	.	.	2r	.	2r	.	8r	8r
.	.	.	.	.	16ff#\)	.	.	.	.	.	.	.	.	.	.	.
8G\	.	.	.	.	(16gg\	.	.	.	.	.	.	.	.	.	8e\L	8g\L
.	.	.	16g/Jk	.	16ee\JJ)	.	.	.	.	.	.	.	.	.	.	.
8A\	4	.	16g/LL	.	16ee\LL	.	.	.	.	.	.	.	.	.	8d\	8f#\
.	.	.	16f#/	.	16dd\	.	.	.	.	.	.	.	.	.	.	.
8AA/J	3	.	16f#/	.	16dd\	.	.	.	.	.	.	.	.	.	8A\J	8e\J
.	.	.	16e/JJ	.	16cc#\JJ	.	.	.	.	.	.	.	.	.	.	.
!	!	!	!	!	!	!	!	!	!	!	!	!	!LO:PB:g=original	!	!	!
=132	=132	=132	=132	=132	=132	=132	=132	=132	=132	=132	=132	=132	=132	=132	=132	=132
!	!	!LO:DY:t=p.	!	!LO:DY:t=p.	!	!LO:DY:t=p.	!	!	!	!	!	!	!	!	!	!
4D\	.	p	8f#/L	p	8dd\L	p	.	.	.	.	8r	.	8r	.	4F#/	4d\
!	!	!	!	!	!	!	!	!	!	!	!LO:TX:a:i:t=Solo	!	!LO:TX:a:i:t=Solo	!	!	!
.	.	.	16f#/L	.	16dd\L	.	.	.	.	.	16f#\LL	Glo-	16dd\LL	Glo-	.	.
.	.	.	16e/JJ	.	16cc#\JJ	.	.	.	.	.	16e\JJ	.	16cc#\JJ	.	.	.
4r	.	.	8f#/L	.	8dd\L	.	.	.	.	.	8f#\	-ri-	8dd\	-ri-	4r	4r
.	.	.	8g/J	.	8ee\J	.	.	.	.	.	8g\	-a	8ee\	-a	.	.
=133	=133	=133	=133	=133	=133	=133	=133	=133	=133	=133	=133	=133	=133	=133	=133	=133
8r	.	.	4.a/	.	4.ff#\	.	0r	.	0r	.	4.a\	pat-	(4.ff#\	pat-	0r	0r
8D\L	.	.	.	.	.	.	.	.	.	.	.	.	.	.	.	.
8d\	.	.	.	.	.	.	.	.	.	.	.	.	.	.	.	.
8D\J	.	.	16g/LL	.	16ee\LL	.	.	.	.	.	16g\LL	.	16ee\LL	.	.	.
.	.	.	16f#/JJ	.	16dd\JJ	.	.	.	.	.	16f#\JJ	.	16dd\JJ)	.	.	.
!	!	!	!LO:LB:g=original	!	!	!	!	!	!	!	!	!	!	!	!	!
=134	=134	=134	=134	=134	=134	=134	=134	=134	=134	=134	=134	=134	=134	=134	=134	=134
4A\	.	.	8e/L	.	8cc#\L	.	.	.	.	.	8e\	-ri	8cc#\	-ri	.	.
.	.	.	.	.	16qqdd/	.	.	.	.	.	.	.	.	.	.	.
.	.	.	16e/L	.	16cc#\L	.	.	.	.	.	16e\LL	glo-	16cc#\LL	glo-	.	.
.	.	.	16d/JJ	.	16b\JJ	.	.	.	.	.	16d\JJ	.	16b\JJ	.	.	.
!	!	!	!	!	!	!	!	!	!	!	!LO:LB:g=original	!	!	!	!	!
4r	.	.	8e/L	.	8cc#\L	.	.	.	.	.	8e\	-ri-	8cc#\	-ri-	.	.
.	.	.	8f#/J	.	8dd\J	.	.	.	.	.	8f#\	-a	8dd\	-a	.	.
=135	=135	=135	=135	=135	=135	=135	=135	=135	=135	=135	=135	=135	=135	=135	=135	=135
8r	.	.	4.g/	.	4.ee\	.	.	.	.	.	4.g\	fi-	4.ee\	fi-	.	.
!LO:TX:t=P:problem:mixed beam	!	!	!	!	!	!	!	!	!	!	!	!	!	!	!	!
8AA/L	.	.	.	.	.	.	.	.	.	.	.	.	.	.	.	.
8A\	.	.	.	.	.	.	.	.	.	.	.	.	.	.	.	.
8AA/J	.	.	16a/LL	.	16ff#\LL	.	.	.	.	.	16a\LL	-li-	16ff#\LL	-li-	.	.
.	.	.	16g/JJ	.	16ee\JJ	.	.	.	.	.	16g\JJ	.	16ee\JJ	.	.	.
=136	=136	=136	=136	=136	=136	=136	=136	=136	=136	=136	=136	=136	=136	=136	=136	=136
4D\	.	.	8f#/L	.	8dd\L	.	.	.	.	.	8f#\	-o	8dd\	-o	.	.
.	.	.	8a/	.	8ff#\	.	.	.	.	.	8a\L	et	8ff#\L	et	.	.
8r	.	.	8g/	.	8ee\	.	.	.	.	.	8g\J	.	8ee\J	.	.	.
8F#\	6	.	8f#/J	.	8dd\J	.	.	.	.	.	8f#\	-Spi-	8dd\	-Spi-	.	.
=137	=137	=137	=137	=137	=137	=137	=137	=137	=137	=137	=137	=137	=137	=137	=137	=137
8G\L	.	.	4b/	.	4gg\	.	1r	.	1r	.	4b\	-ri-	4gg\	-ri-	1r	1r
16F#\L	.	.	.	.	.	.	.	.	.	.	.	.	.	.	.	.
16E\JJ	.	.	.	.	.	.	.	.	.	.	.	.	.	.	.	.
8F#\L	.	.	8a/L	.	8ff#\L	.	.	.	.	.	8a\	-tu-	8ff#\	-tu-	.	.
8G\J	6	.	8g/J	.	8ee\J	.	.	.	.	.	8g\	-i	8ee\	-i	.	.
=138	=138	=138	=138	=138	=138	=138	=138	=138	=138	=138	=138	=138	=138	=138	=138	=138
!LO:TX:t=P:problem:mixed beam	!	!	!	!	!	!	!	!	!	!	!	!	!	!	!	!
8A\L	4	.	4f#/	.	4dd\	.	.	.	.	.	4f#\	Sanc-	4dd\	Sanc-	.	.
8A\	.	.	.	.	.	.	.	.	.	.	.	.	.	.	.	.
8AA/	3	.	4e/	.	4cc#\	.	.	.	.	.	4e\	.	4cc#\	.	.	.
8AA/J	.	.	.	.	.	.	.	.	.	.	.	.	.	.	.	.
!	!	!	!	!	!LO:LB:g=original	!	!	!	!	!	!	!	!LO:LB:g=original	!	!	!
=139	=139	=139	=139	=139	=139	=139	=139	=139	=139	=139	=139	=139	=139	=139	=139	=139
4D\	.	.	8f#/L	.	16dd\LL	.	2r	.	2r	.	4f#\	-to	4dd\	-to	2r	2r
.	.	.	.	.	16a\	.	.	.	.	.	.	.	.	.	.	.
.	.	.	16g/L	.	16b\	.	.	.	.	.	.	.	.	.	.	.
.	.	.	16a/JJ	.	16cc#\JJ	.	.	.	.	.	.	.	.	.	.	.
!	!	!	!	!LO:DY:t=for.	!	!	!	!	!	!	!	!	!	!	!	!
4r	.	.	16b\LL	f	16dd\LL	.	.	.	.	.	4r	.	4r	.	.	.
.	.	.	16cc#\	.	16ee\	.	.	.	.	.	.	.	.	.	.	.
.	.	.	16dd\	.	16ff#\	.	.	.	.	.	.	.	.	.	.	.
.	.	.	16ee\JJ	.	16gg\JJ	.	.	.	.	.	.	.	.	.	.	.
=140	=140	=140	=140	=140	=140	=140	=140	=140	=140	=140	=140	=140	=140	=140	=140	=140
*	*	*	*^	*	*	*	*	*	*	*	*	*	*	*	*	*
*	*	*	*	*Xtremolo	*	*	*	*	*	*	*	*	*	*	*	*	*
!LO:TX:a:i:t=tutti	!	!	!	!	!	!	!LO:DY:t=for	!	!	!	!	!	!	!	!	!	!
8D\L	.	.	16a/LL	16f#\LL	.	8.aa\L	f	4D\	Si-	4A\	Si-	4f#\	Si-	4dd\	Si-	2F#/	2d\
.	.	.	16a/	16f#\	.	.	.	.	.	.	.	.	.	.	.	.	.
8D\	.	.	16a/	16f#\	.	.	.	.	.	.	.	.	.	.	.	.	.
.	.	.	16a/JJ	16f#\JJ	.	32ff#\LL	.	.	.	.	.	.	.	.	.	.	.
.	.	.	.	.	.	32gg\JJJ	.	.	.	.	.	.	.	.	.	.	.
*	*	*	*tremolo	*tremolo	*	*	*	*	*	*	*	*	*	*	*	*	*
8D\	.	.	16a/LL	16f#\LL	.	8aa\L	.	4D\	-cut	4A\	-cut	4f#\	-cut	4dd\	-cut	.	.
.	.	.	16a/	16f#\	.	.	.	.	.	.	.	.	.	.	.	.	.
8D\J	.	.	16a/	16f#\	.	8aa\J	.	.	.	.	.	.	.	.	.	.	.
.	.	.	16a/JJ	16f#\JJ	.	.	.	.	.	.	.	.	.	.	.	.	.
!LO:LB:g=original	!	!	!	!	!	!	!	!	!	!	!	!	!	!	!	!	!
=141	=141	=141	=141	=141	=141	=141	=141	=141	=141	=141	=141	=141	=141	=141	=141	=141	=141
*tremolo	*	*	*	*	*	*	*	*	*	*	*	*	*	*	*	*	*
8D\L	.	.	16a/LL	16f#\LL	.	8.aa\L	.	4D\	e-	4A\	e-	4f#\	e-	4dd\	e-	2F#/	2d\
.	.	.	16a/	16f#\	.	.	.	.	.	.	.	.	.	.	.	.	.
8D\	.	.	16a/	16f#\	.	.	.	.	.	.	.	.	.	.	.	.	.
.	.	.	16a/JJ	16f#\JJ	.	16ff#\Jk	.	.	.	.	.	.	.	.	.	.	.
8D\	.	.	16a/LL	16f#\LL	.	16bb\LL	.	4D\	-rat	4A\	-rat	4f#\	-rat	4dd\	-rat	.	.
.	.	.	16a/	16f#\	.	16aa\	.	.	.	.	.	.	.	.	.	.	.
8D\J	.	.	16a/	16f#\	.	16gg\	.	.	.	.	.	.	.	.	.	.	.
.	.	.	16a/JJ	16f#\JJ	.	16ff#\JJ	.	.	.	.	.	.	.	.	.	.	.
*	*	*	*v	*v	*	*	*	*	*	*	*	*	*	*	*	*	*
=142	=142	=142	=142	=142	=142	=142	=142	=142	=142	=142	=142	=142	=142	=142	=142	=142
8AA/L	.	.	16cc#LL 16e/	.	8.gg\L	.	4A\	in	4A\	in	4e\	in	4cc#\	in	2A/	2e\
.	.	.	16cc# 16e/	.	.	.	.	.	.	.	.	.	.	.	.	.
8AA/	.	.	16cc# 16e/	.	.	.	.	.	.	.	.	.	.	.	.	.
.	.	.	16cc#JJ 16e/	.	32ee\LL	.	.	.	.	.	.	.	.	.	.	.
.	.	.	.	.	32ff#\JJJ	.	.	.	.	.	.	.	.	.	.	.
8AA/	.	.	16cc#LL 16e/	.	8gg\L	.	4A\	prin-	4A\	prin-	4e\	prin-	4cc#\	prin-	.	.
.	.	.	16cc# 16e/	.	.	.	.	.	.	.	.	.	.	.	.	.
8AA/J	.	.	16cc# 16e/	.	8gg\J	.	.	.	.	.	.	.	.	.	.	.
.	.	.	16cc#JJ 16e/	.	.	.	.	.	.	.	.	.	.	.	.	.
*	*	*	*Xtremolo	*	*	*	*	*	*	*	*	*	*	*	*	*
!	!	!	!	!	!	!	!	!	!	!	!LO:LB:g=original	!	!	!	!	!
=143	=143	=143	=143	=143	=143	=143	=143	=143	=143	=143	=143	=143	=143	=143	=143	=143
8AA/L	.	.	16cc#LL 16e/	.	8.gg\L	.	4A\	-ci-	8.A\	-ci-	4e\	-ci-	4cc#\	-ci-	2A/	2e\
.	.	.	16cc# 16e/	.	.	.	.	.	.	.	.	.	.	.	.	.
8AA/	.	.	16cc# 16e/	.	.	.	.	.	.	.	.	.	.	.	.	.
.	.	.	16cc#JJ 16e/	.	16ee\Jk	.	.	.	16A\	-pi-	.	.	.	.	.	.
*	*	*	*tremolo	*	*	*	*	*	*	*	*	*	*	*	*	*
8AA/	.	.	16cc#LL 16e/	.	16aa\LL	.	4A\	-pi-	8A\	-o	4e\	-pi-	4cc#\	-pi-	.	.
.	.	.	16cc# 16e/	.	16gg\	.	.	.	.	.	.	.	.	.	.	.
8AA/J	.	.	16cc# 16e/	.	16ff#\	.	.	.	8A\	et	.	.	.	.	.	.
.	.	.	16cc#JJ 16e/	.	16ee\JJ	.	.	.	.	.	.	.	.	.	.	.
*Xtremolo	*	*	*Xtremolo	*	*	*	*	*	*	*	*	*	*	*	*	*
!	!	!	!LO:LB:g=original	!	!	!	!	!	!	!	!	!	!	!	!	!
=144	=144	=144	=144	=144	=144	=144	=144	=144	=144	=144	=144	=144	=144	=144	=144	=144
8D\L	.	.	8a/L	.	(16ee\LL	.	4D\	-o	4A\	nunc	4f#\	-o	4dd\	-o	2d\	2f#\
.	.	.	.	.	16ff#\J)	.	.	.	.	.	.	.	.	.	.	.
8D\	.	.	8a/	.	8ff#|\J	.	.	.	.	.	.	.	.	.	.	.
8F#\	6	.	8a/	.	16r	.	4F#\	et	4A\	et	4f#\	et	4dd\	et	.	.
.	.	.	.	.	16aa|\LL	.	.	.	.	.	.	.	.	.	.	.
8F#\J	.	.	8a/J	.	16ff#|\	.	.	.	.	.	.	.	.	.	.	.
.	.	.	.	.	16dd|\JJ	.	.	.	.	.	.	.	.	.	.	.
=145	=145	=145	=145	=145	=145	=145	=145	=145	=145	=145	=145	=145	=145	=145	=145	=145
8G\L	6_	.	8b/L	.	(16dd#X\LL	.	4G\	nunc	4B\	Sem-	4g\	nunc	4ee\	nunc	4e\	4g\
.	.	.	.	.	16ee\J)	.	.	.	.	.	.	.	.	.	.	.
8G\	X	.	8b/	.	8ee|\J	.	.	.	.	.	.	.	.	.	.	.
!	!	!	!	!	!LO:LB:g=original	!	!	!	!	!	!	!	!	!	!	!
8A\	.	.	8e/	.	16r	.	4A\	et	8A\	-per	4e\	et	4cc#\	et	4A/	4e\
.	.	.	.	.	16gg|\LL	.	.	.	.	.	.	.	.	.	.	.
8A\J	.	.	8e/J	.	16ee|\	.	.	.	8A\	et	.	.	.	.	.	.
.	.	.	.	.	16cc#|\JJ	.	.	.	.	.	.	.	.	.	.	.
!	!	!	!	!	!	!	!	!	!LO:LB:g=original	!	!	!	!	!	!	!
=146	=146	=146	=146	=146	=146	=146	=146	=146	=146	=146	=146	=146	=146	=146	=146	=146
*	*	*	*	*	*	*	*	*ij	*	*	*	*	*	*	*	*
8B\L	.	.	8f#/L	.	(16cc#\LL	.	4B\	nunc	4B\	nunc	4g\	nunc	4dd\	nunc	4d\	4f#\
.	.	.	.	.	16dd\J)	.	.	.	.	.	.	.	.	.	.	.
8B\	.	.	8f#/	.	8.dd|\J	.	.	.	.	.	.	.	.	.	.	.
8G#X\	6 5	.	8b/	.	.	.	4G#X\	et	4B\	et	4e\	et	4dd\	et	4e\	4e\
*	*	*	*	*	*	*	*	*Xij	*	*	*	*	*	*	*	*
.	.	.	.	.	16b\LL	.	.	.	.	.	.	.	.	.	.	.
8G#\J	.	.	8b/J	.	16ee\	.	.	.	.	.	.	.	.	.	.	.
.	.	.	.	.	16dd\JJ	.	.	.	.	.	.	.	.	.	.	.
=147	=147	=147	=147	=147	=147	=147	=147	=147	=147	=147	=147	=147	=147	=147	=147	=147
!LO:TX:t=P:problem:mixed beam	!	!	!	!	!	!	!	!	!	!	!	!	!	!	!	!
8A\L	4	.	8.f#/L	.	8.dd\L	.	4A\	Sem-	4A\	Sem-	4f#\	Sem-	4dd\	Sem-	4d\	4f#\
8A\	.	.	.	.	.	.	.	.	.	.	.	.	.	.	.	.
.	.	.	32e/LL	.	32cc#\LL	.	.	.	.	.	.	.	.	.	.	.
.	.	.	32f#/JJJ	.	32dd\JJJ	.	.	.	.	.	.	.	.	.	.	.
8AA/J	3	.	8e/L	.	16cc#\LL	.	8AA/	-per	8A\	-per	8e\	-per	8cc#\	-per	8A/	8e\
.	.	.	.	.	16a\	.	.	.	.	.	.	.	.	.	.	.
8r	.	.	8e/J	.	16cc#\	.	8r	.	8r	.	8r	.	8r	.	8r	8r
.	.	.	.	.	16ee\JJ	.	.	.	.	.	.	.	.	.	.	.
!	!	!	!	!	!	!	!LO:LB:g=original	!	!	!	!	!	!	!	!	!
=148	=148	=148	=148	=148	=148	=148	=148	=148	=148	=148	=148	=148	=148	=148	=148	=148
8r	.	.	8e/	.	16aa\LL	.	8r	.	8r	.	8r	.	8r	.	8r	8r
.	.	.	.	.	16cc#\JJ	.	.	.	.	.	.	.	.	.	.	.
8AA/L	3_	.	4e/	.	4cc#\	.	4A\	et	4A\	et	4e\	et	4cc#\	et	8A/L	8e\L
8A\	.	.	.	.	.	.	.	.	.	.	.	.	.	.	8A/	8e\
8Gn\J	.	.	16d/LL	.	16b\LL	.	8Gn\	in	8A\	in	8e\	in	8cc#\	in	8A/J	8e\J
.	X	.	16e/JJ	.	16cc#\JJ	.	.	.	.	.	.	.	.	.	.	.
!	!	!	!	!	!	!	!	!	!	!	!	!	!LO:LB:g=original	!	!	!
=149	=149	=149	=149	=149	=149	=149	=149	=149	=149	=149	=149	=149	=149	=149	=149	=149
8F#\L	6	.	8a/L	.	8dd\L	.	8F#\	Sae-	8A\	Sae-	8f#\	Sae-	8dd\	Sae-	8d\L	8f#\L
.	.	.	.	.	16qqee/	.	.	.	.	.	.	.	.	.	.	.
8E\	6	.	8g/J	.	16dd\L	.	8E\	-cu-	8A\	-cu-	8g\	-cu-	8cc#\	-cu-	8e\	8g\
.	.	.	.	.	16cc#\JJ	.	.	.	.	.	.	.	.	.	.	.
8D\J	.	.	16f#/LL	.	16dd\LL	.	8D\	-la	8A\	-la	8f#\	-la	8dd\	-la	8d\J	8f#\J
.	.	.	16a/	.	16ff#\	.	.	.	.	.	.	.	.	.	.	.
8r	.	.	16g/	.	16ee\	.	8r	.	8r	.	8r	.	8r	.	8r	8r
.	.	.	16f#/JJ	.	16dd\JJ	.	.	.	.	.	.	.	.	.	.	.
=150	=150	=150	=150	=150	=150	=150	=150	=150	=150	=150	=150	=150	=150	=150	=150	=150
.	.	.	.	.	8qqcc#/	.	.	.	.	.	.	.	.	.	.	.
8r	.	.	8e/	.	8cc#\	.	8r	.	8r	.	8r	.	8r	.	8r	8r
*	*	*	*	*	*	*	*	*	*	*	*	*ij	*	*	*	*
!LO:TX:t=P:problem:mixed beam	!	!	!	!	!	!	!	!	!	!	!	!	!	!	!	!
8AA/L	3_	.	4e/	.	4cc#\	.	4A\	et	4A\	et	4e\	et	4cc#\	et	8A/L	8e\L
8A\	.	.	.	.	.	.	.	.	.	.	.	.	.	.	8A/	8e\
8G\J	X	.	16d/LL	.	16b\LL	.	8G\	in	8A\	in	8e\	in	8cc#\	in	8A/J	8e\J
.	.	.	16e/JJ	.	16cc#\JJ	.	.	.	.	.	.	.	.	.	.	.
!	!	!	!	!	!	!	!	!	!	!	!	!	!	!	!LO:PB:g=original	!LO:LB:g=original
=151	=151	=151	=151	=151	=151	=151	=151	=151	=151	=151	=151	=151	=151	=151	=151	=151
8F#\L	6	.	8a/L	.	8dd\L	.	8F#\	Sae-	8A\	Sae-	8f#\	Sae-	8dd\	Sae-	8d\L	8f#\L
8E\	6	.	8g/	.	16dd\L	.	8E\	-cu-	8A\	-cu-	8g\	-cu-	8cc#\	-cu-	8e\J	8g\J
.	.	.	.	.	16cc#\JJ	.	.	.	.	.	.	.	.	.	.	.
!	!	!	!	!	!	!	!	!	!	!	!	!	!LO:N:vis=8	!	!	!
8D\	.	.	8f#/	.	16dd\LL	.	8D\L	-la	4A\	-la	4f#\	-la	4dd\	-la	4d\	4f#\
*	*	*	*	*	*	*	*	*	*	*	*	*Xij	*	*	*	*
.	.	.	.	.	16ff#\	.	.	.	.	.	.	.	.	.	.	.
8F#\J	6\	.	8a/J	.	16ee\	.	8F#\J	.	.	.	.	.	.	.	.	.
.	.	.	.	.	16dd\JJ	.	.	.	.	.	.	.	.	.	.	.
!	!	!	!	!	!LO:LB:g=original	!	!	!	!	!	!LO:LB:g=original	!	!	!	!	!
=152	=152	=152	=152	=152	=152	=152	=152	=152	=152	=152	=152	=152	=152	=152	=152	=152
8G\L	6	.	8b/L	.	16dd#X\LL	.	4G\	Sae-	4B\	Sae-	4g\	Sae-	4ee\	Sae-	4e\	4g\
.	.	.	.	.	16ee\J	.	.	.	.	.	.	.	.	.	.	.
8G\	.	.	8b/	.	8ee\J	.	.	.	.	.	.	.	.	.	.	.
8A\	.	.	8e/	.	16r	.	4A\	-cu-	4A\	-cu-	4e\	-cu-	4cc#\	-cu-	4A/	4e\
.	.	.	.	.	16gg\LL	.	.	.	.	.	.	.	.	.	.	.
8A\J	.	.	8e/J	.	16ee\	.	.	.	.	.	.	.	.	.	.	.
.	.	.	.	.	16cc#\JJ	.	.	.	.	.	.	.	.	.	.	.
!LO:LB:g=original	!	!	!	!	!	!	!	!	!	!	!	!	!	!	!	!
=153	=153	=153	=153	=153	=153	=153	=153	=153	=153	=153	=153	=153	=153	=153	=153	=153
8B\L	.	.	8f#/L	.	16cc#\LL	.	4B\	-lo-	4B\	-lo-	4f#\	-lo-	4dd\	-lo-	4d\	4f#\
.	.	.	.	.	16dd\J	.	.	.	.	.	.	.	.	.	.	.
8B\	.	.	8f#/	.	8dd\J	.	.	.	.	.	.	.	.	.	.	.
8F#\	6	.	8a/	.	16r	.	4F#\	-rum	4A\	-rum	4f#\	-rum	4dd\	-rum	4d\	4f#\
.	.	.	.	.	16aa\LL	.	.	.	.	.	.	.	.	.	.	.
8F#\J	.	.	8a/J	.	16ff#\	.	.	.	.	.	.	.	.	.	.	.
.	.	.	.	.	16dd\JJ	.	.	.	.	.	.	.	.	.	.	.
!	!	!	!LO:LB:g=original	!	!	!	!	!	!	!	!	!	!	!	!	!
=154	=154	=154	=154	=154	=154	=154	=154	=154	=154	=154	=154	=154	=154	=154	=154	=154
!LO:TX:t=P:problem:mixed beam	!	!	!	!	!	!	!	!	!	!	!	!	!	!	!	!
8G\L	6	.	8b/L	.	16dd#X\LL	.	4G\	a-	(4d\	a-	4g\	a-	4ee\	a-	4e\	4g\
.	.	.	.	.	16ee\	.	.	.	.	.	.	.	.	.	.	.
8G\	.	.	16b/L	.	16gg\	.	.	.	.	.	.	.	.	.	.	.
.	.	.	16g/JJ	.	16ee\JJ	.	.	.	.	.	.	.	.	.	.	.
!	!	!	!	!	!	!	!LO:TX:t=P:problem:mixed beam	!	!	!	!	!	!	!	!	!
8A\	4	.	16g/LL	.	16ee\LL	.	8A\L	.	4c#\)	.	8f#\L	.	8dd\L	.	8d\L	8f#\L
.	.	.	16f#/	.	16ddn\	.	.	.	.	.	.	.	.	.	.	.
8AA/J	3	.	16f#/	.	16dd\	.	8AA\J	.	.	.	8e\J	.	8cc#\J	.	8A\J	8e\J
.	.	.	16e/JJ	.	16cc#\JJ	.	.	.	.	.	.	.	.	.	.	.
=155	=155	=155	=155	=155	=155	=155	=155	=155	=155	=155	=155	=155	=155	=155	=155	=155
4D\	.	.	8f#/L	.	8cc#\L	.	4D\	-men	4A\	-men	4f#\	-men	4dd\	-men	4F#/	4d\
!	!	!	!	!	!LO:TUP:a:problem:klamra łukowa	!	!	!	!	!	!	!	!	!	!	!
.	.	.	8d/J	.	24ff#\L	.	.	.	.	.	.	.	.	.	.	.
.	.	.	.	.	24gg\	.	.	.	.	.	.	.	.	.	.	.
.	.	.	.	.	24ff#\JJ	.	.	.	.	.	.	.	.	.	.	.
4r	.	.	4c#/	.	16ee|\LL	.	4r	.	4r	.	4r	.	4r	.	4r	4r
.	.	.	.	.	16ff#|\	.	.	.	.	.	.	.	.	.	.	.
.	.	.	.	.	16gg|\	.	.	.	.	.	.	.	.	.	.	.
.	.	.	.	.	16aa|\JJ	.	.	.	.	.	.	.	.	.	.	.
!	!	!	!	!	!	!	!	!	!LO:LB:g=original	!	!	!	!	!	!	!
=156	=156	=156	=156	=156	=156	=156	=156	=156	=156	=156	=156	=156	=156	=156	=156	=156
8r	.	.	8d/L	.	8ff#\	.	8r	.	8r	.	8r	.	8r	.	8r	8r
*	*	*	*	*	*	*	*	*	*	*	*	*ij	*	*	*	*
8B\L	.	.	8f#/J	.	4dd\	.	8B\L	a-	(4B\	a-	8f#\	a-	4dd\	a-	8d\L	8f#\
8G\	6 5	.	4e/	.	.	.	8G\	.	.	.	4e\	.	.	.	8d\	4e\
8A\J	.	.	.	.	8cc#\	.	8A\J	.	8A\)	.	.	.	8cc#\	.	8A\J	.
!	!	!	!	!	!	!	!LO:LB:g=original	!	!	!	!	!	!	!	!	!
=157	=157	=157	=157	=157	=157	=157	=157	=157	=157	=157	=157	=157	=157	=157	=157	=157
4D\	.	.	8f#/L	.	8dd\L|	.	4D\	men	4A\	men	4f#\	men	4dd\	men	4F#/	4d\
!	!	!	!	!	!LO:TUP:a:problem:klamra łukowa	!	!	!	!	!	!	!	!	!	!	!
.	.	.	8d/J	.	24ff#\L	.	.	.	.	.	.	.	.	.	.	.
.	.	.	.	.	24gg\	.	.	.	.	.	.	.	.	.	.	.
.	.	.	.	.	24ff#\JJ	.	.	.	.	.	.	.	.	.	.	.
4r	.	.	4c#/	.	16ee|\LL	.	4r	.	4r	.	4r	.	4r	.	4r	4r
.	.	.	.	.	16ff#|\	.	.	.	.	.	.	.	.	.	.	.
.	.	.	.	.	16gg|\	.	.	.	.	.	.	.	.	.	.	.
.	.	.	.	.	16aa|\JJ	.	.	.	.	.	.	.	.	.	.	.
!	!	!	!	!	!LO:LB:g=original	!	!	!	!	!	!	!	!LO:LB:g=original	!	!	!
=158	=158	=158	=158	=158	=158	=158	=158	=158	=158	=158	=158	=158	=158	=158	=158	=158
8r	.	.	8d/L	.	8ff#\	.	8r	.	8r	.	8r	.	8r	.	8r	8r
8B\L	.	.	8f#/J	.	4dd\	.	8B\L	a-	(4B\	a-	8f#\	a-	4dd\	a-	8d\L	8f#\
8G\	6 5	.	4e/	.	.	.	8G\	.	.	.	4e\	.	.	.	8d\	4e\
8A\J	.	.	.	.	8cc#\	.	8A\J	.	8A\)	.	.	.	8cc#\	.	8A\J	.
=159	=159	=159	=159	=159	=159	=159	=159	=159	=159	=159	=159	=159	=159	=159	=159	=159
4D\	.	.	4f#/	.	4dd\	.	4D\	-men	4A\	-men	4f#\	-men	4dd\	-men	4F#/	4d\
*	*	*	*	*	*	*	*	*	*	*	*	*Xij	*	*ij	*	*
4AA/	.	.	4cc# 4e\	.	4ee 4a\	.	4A\	a-	4c#\	a-	4a\	a-	4ee\	a-	4A/	4e\
=160	=160	=160	=160	=160	=160	=160	=160	=160	=160	=160	=160	=160	=160	=160	=160	=160
4DD/	.	.	4dd 4f#\	.	4ff# 4a 4d\	.	4D\	-men	4d\	-men	4a\	-men	4ff#\	-men	4F#/	4d\
*	*	*	*	*	*	*	*	*	*	*	*	*	*	*Xij	*	*
4r	.	.	4r	.	4r	.	4r	.	4r	.	4r	.	4r	.	4r	4r
==	==	==	==	==	==	==	==	==	==	==	==	==	==	==	==	==
*-	*-	*-	*-	*-	*-	*-	*-	*-	*-	*-	*-	*-	*-	*-	*-	*-
!!!system-decoration: [(g1)][(g2)][(g3)]s9
!!!RDF**kern: < = below
!!!RDF**kern: | = vertical stroke
!!!AIN: 1 alto 1 bass 2 cor 1 organ 1 soprn 1 tenor 2 violn
!!!ENC: Marta Opryszak
!!!END: 2021-11-28
!!!ENC: Marta Lawrence
!!!END: 2021-12-08
